jozwiaka/dev-robotics/src/Wynik_KO3_3D.txt
q1,q2,q3,q4,q5,q6,
-0.5047499882778591,0.8577976813940975,-1.0936098690728842,-1.1707266790191655,0.5527735911453244,-0.46114368924898913,
-0.5047499882778591,0.8577976813940975,-1.0936098690728842,-1.1707266790191655,0.5527735911453244,-0.46114368924898913,
-0.4962447541183308,0.8666754666570573,-1.098180326711178,-1.1699711461085918,0.5434749486044884,-0.45972160232524817,
-0.4876604597783925,0.8755011931822051,-1.1026960467123494,-1.1691956154748269,0.5340960790663393,-0.4583514293004241,
-0.478997280555095,0.8842707217059148,-1.1071557595662453,-1.1683941447334987,0.5246382982082165,-0.45704028907448513,
-0.4702554423400902,0.8929797777189208,-1.1115581613647538,-1.167560107029486,0.5151030215868342,-0.455795956190631,
-0.46143522322886277,0.9016239515258432,-1.1159019137153299,-1.1666861175612713,0.5054917675353101,-0.4546269307896568,
-0.45253695510189756,0.9101986987043337,-1.1201856437499627,-1.1657639512351379,0.4958061602387418,-0.4535425173266541,
-0.44356102517129076,0.9186993409961772,-1.1244079442390968,-1.1647844501679605,0.4860479330407907,-0.45255291333864184,
-0.4345078774862831,0.9271210676654313,-1.1285673738211885,-1.1637374195418377,0.47621893204554433,-0.4516693097682111,
-0.42537801439093975,0.9354589373595656,-1.1326624573590356,-1.1626115100528716,0.4663211200934316,-0.45090400461050195,
-0.4161719979269944,0.9437078805102971,-1.1366916864344814,-1.1613940848834716,0.4563565812074272,-0.45027053196513656,
-0.40689045117466915,0.951862702311164,-1.1406535199934034,-1.1600710687508144,0.44632752562686184,-0.44978380895292874,
-0.3975340595241234,0.9599180863091281,-1.1445463851532276,-1.1586267761294737,0.4362362955716268,-0.4494603034133077,
-0.38810357187004124,0.9678685986472287,-1.1483686781853724,-1.1570437151954887,0.4260853719104883,-0.44931822585071884,
-0.37859980172177665,0.9757086929947776,-1.1521187656851088,-1.1553023633701387,0.4158773819448437,-0.44937774976887157,
-0.3690236282214022,0.9834327162005295,-1.1557949859412586,-1.1533809095261705,0.4056151085652233,-0.44966126534888773,
-0.35937599706199996,0.9910349147027878,-1.159395650517957,-1.1512549569221713,0.39530150109422163,-0.4501936724261221,
-0.34965792129855044,0.9985094417283054,-1.1629190460603012,-1.1488971797076708,0.38493968819901253,-0.4510027199452247,
-0.33987048204386333,1.0058503653092226,-1.1663634363351545,-1.1462769243367708,0.3745329933425952,-0.4521194005794579,
-0.3300148290421247,1.013051677143967,-1.1697270645175686,-1.1433597453711288,0.3640849533498767,-0.45357841105888547,
-0.32009218111283183,1.0201073023241152,-1.1730081557323022,-1.1401068628550868,0.3535993407984288,-0.45541869105163924,
-0.3101038264581677,1.0270111099445796,-1.1762049198586677,-1.1364745255947684,0.3430801911118262,-0.4576840562949103,
-0.30005112282722085,1.0337569246092329,-1.1793155546054812,-1.1324132611279947,0.3325318354458292,-0.46042394521861046,
-0.28993549747770214,1.0403385385018693,-1.182338248746056,-1.1278669877621823,0.32195894077764536,-0.4636943037434094,
-0.2797584471769717,1.0467497255969966,-1.1852711860565293,-1.1227719641149583,0.3113665586684028,-0.4675586327172619,
-0.2695215377383802,1.0529842548166646,-1.1881125488648445,-1.1170555309757217,0.3007601853195984,-0.47208924347640285,
-0.25922640363148913,1.0590359055919158,-1.190860522402235,-1.1106346108597758,0.2901458351252945,-0.47736875589413186,
-0.2488747473250959,1.0648984836426765,-1.193513299210307,-1.1034139038746908,0.2795301314994958,-0.4834919005168113,
-0.23846833844061438,1.0705658374765068,-1.1960690837812855,-1.0952837129377078,0.2689204193233967,-0.49056769173154485,
-0.22800901285298397,1.0760318763628638,-1.19852609769066,-1.086117316823392,0.2583249045703626,-0.49872205346597936,
-0.21749867139480292,1.0812905877203252,-1.2008825845301003,-1.0757677802288175,0.24775282875547713,-0.5081010084016928,
-0.2069392785700374,1.0863360562348492,-1.203136815428575,-1.0640640827607486,0.23721468734392678,-0.5188745486615987,
-0.1963328609993478,1.0911624829919024,-1.205287094585908,-1.05080640945073,0.22672250471936004,-0.5312413455067999,
-0.1856815056988796,1.0957642051220673,-1.2073317649923745,-1.0357604273390182,0.21629018168449762,-0.5454344734858253,
-0.1749873581783005,1.1001357157581189,-1.2092692142706736,-1.0186503490357528,0.20593393638778668,-0.5617283481568134,
-0.1642526203072279,1.1042716839373505,-1.2110978805224537,-0.9991505771552421,0.19567286574137302,-0.5804470835159038,
-0.15347954821389845,1.108166975536528,-1.2128162585444269,-0.976875760892548,0.185529661750133,-0.6019744378249238,
-0.14267044965751294,1.1118166724427152,-1.2144229054877687,-0.9513691826247347,0.175531526825446,-0.6267654300824251,
-0.13182768154268007,1.115216092957436,-1.2159164469607842,-0.9220896749561026,0.16571134065023815,-0.6553594265842679,
-0.1209536471348341,1.118360811144671,-1.217295582816333,-0.8883977727376794,0.15610913985797964,-0.6883939931384738,
-0.11005079314710295,1.1212466757404316,-1.2185590928322159,-0.8495428391989635,0.14677397189188487,-0.7266177737549586,
-0.09912160659457471,1.1238698280697654,-1.2197058421034808,-0.8046547450876109,0.13776616675191364,-0.7708988169118051,
-0.0881686118384123,1.1262267201277134,-1.22073478652942,-0.7527468212675615,0.1291600117227785,-0.8222216289051885,
-0.0771943669569731,1.1283141298259434,-1.221644977408336,-0.692741627226797,0.12104667825279228,-0.8816614118598971,
-0.06620146046652667,1.1301291765719712,-1.2224355661852502,-0.6235376065270328,0.11353697573032125,-0.9503174152719752,
-0.05519250772837514,1.1316693347956912,-1.2231058085670168,-0.5441408043113696,0.10676303559475975,-1.0291812259742212,
-0.044170147296103725,1.1329324460906796,-1.2236550682256417,-0.45388537086455527,0.10087735033084148,-1.1189162724697521,
-0.03313703708770592,1.13391672962237,-1.2240828199757672,-0.3527466730192104,0.0960469131284329,-1.2195447217902347,
-0.022095850884828575,1.1346207912758761,-1.2243886525817416,-0.24169631561150606,0.09244016108591918,-1.330092466638235,
-0.011049274080681456,1.1350436300499815,-1.2245722707041147,-0.12296264200497532,0.09020608398727649,-1.4483286337007208,
-1.4495182525300453e-12,1.135184643372424,-1.2246334965355954,-2.959084994664557e-11,0.08944885316317155,-1.5707963267653757,
0.011049274078044928,1.1350436300490212,-1.2245722707037996,0.1229626419507797,0.09020608398758559,-1.6932640198350006,
0.022095850882841706,1.134620791274432,-1.2243886525812675,0.24169631556988502,0.09244016108637397,-1.811500186910023,
0.03313703708645618,1.1339167296210133,-1.2240828199753218,0.3527466729923275,0.09604691312884621,-1.9220479317727215,
0.04417014719205283,1.132932445941132,-1.223655068176537,0.4538853685612271,0.1008773503744745,-2.022676378819632,
0.05519250767629175,1.131669334702857,-1.223105808536522,0.5441408031264492,0.10676303562057302,-2.112411426431533,
0.06620146044297764,1.130129176522078,-1.2224355661688526,0.6235376059786257,0.1135369757435033,-2.1912752377694953,
0.07719436694711306,1.1283141298018375,-1.2216449774004081,0.6927416269929552,0.12104667825883904,-2.2599312414959374,
0.0881686118345027,1.126226720116926,-1.2207347865258698,0.7527468211736431,0.12916001172534947,-2.319371024590572,
0.099121606593079,1.123869828065185,-1.2197058421019717,0.8046547450513949,0.1377661667529531,-2.3706938366416996,
0.11005079306783105,1.121246675474743,-1.2185590927445997,0.8495428372735057,0.14677397194944425,-2.4149748779039006,
0.12095364710205127,1.118360811025748,-1.2172955827770704,0.8883977719420443,0.15610913988264935,-2.453198659652693,
0.13182768152916197,1.1152160929048542,-1.215916446943402,0.9220896746294188,0.16571134066071663,-2.4862332266772915,
0.14267044965192613,1.1118166724195988,-1.2144229054801159,0.9513691824907006,0.17553152682988574,-2.5148272233725564,
0.15347954821157636,1.108166975526377,-1.2128162585410613,0.976875760837381,0.18552966175201807,-2.53961821570932,
0.164252620306255,1.1042716839328837,-1.2110978805209702,0.9991505771324035,0.1956728657421775,-2.561145570050865,
0.1749873581239992,1.1001357154976097,-1.2092692141840007,1.0186503477787348,0.20593393643342525,-2.5798643041641456,
0.18568150567342043,1.095764204995017,-1.2073317649500224,1.0357604267586875,0.2162901817062089,-2.5961581795174022,
0.19633286098733346,1.0911624829297832,-1.2052870945651577,1.050806409181416,0.2267225047297416,-2.6103513078104044,
0.20693927856433544,1.0863360562044118,-1.2031368154183855,1.0640640826351988,0.23721468734891324,-2.6227181048009314,
0.21749867139208526,1.081290587705392,-1.2008825845250892,1.0757677801700896,0.24775282875788082,-2.6334916451284793,
0.2280090128516862,1.0760318763555436,-1.1985260976881975,1.0861173167958875,0.25832490457152274,-2.642870600095846,
0.23846833843999538,1.070565837472932,-1.1960690837800798,1.0952837129248512,0.26892041932395544,-2.6510249618451533,
0.24887474728989784,1.0648984834350217,-1.1935132991400794,1.1034139031586339,0.2795301315315666,-2.658100752342386,
0.2592264036137508,1.0590359054851992,-1.1908605223660396,1.110634610506412,0.29014583514160536,-2.664223897334473,
0.26952153772967835,1.0529842547633694,-1.1881125488467132,1.117055530806018,0.30076018532767135,-2.6695034099396056,
0.27975844717290177,1.0467497255716594,-1.185271186047882,1.1227719640372718,0.3113665586722115,-2.674034020792823,
0.2899354974759672,1.0403385384909032,-1.182338248742301,1.1278669877297651,0.3219589407792832,-2.6778983498130566,
0.30005112281107277,1.0337569245057927,-1.1793155545699416,1.132413260832818,0.3325318354611907,-2.6811687080671023,
0.3101038264524956,1.0270111099078358,-1.1762049198460034,1.13647452549339,0.34308019111725163,-2.6839085971902286,
0.32009218112825266,1.0201073024254859,-1.173008155767398,1.1401068631253146,0.35359934078347777,-2.6861739628177284,
0.33001482906585755,1.0130516773016922,-1.1697270645723847,1.143359745778212,0.36408495332668045,-2.688014242953006,
0.33987048206930565,1.0058503654800903,-1.1663634363947786,1.1462769247640876,0.3745329933175139,-2.6894732534544237,
0.3496579213225201,0.9985094418908961,-1.1629190461172758,1.148897180101981,0.3849396881751743,-2.6905899340553123,
0.35937599708316825,0.9910349148477477,-1.159395650568975,1.1512549572633424,0.3953015010729797,-2.6913989815199115,
0.3690236282394096,0.9834327163249744,-1.1557949859852543,1.1533809098106065,0.40561510854698696,-2.6919313885386313,
0.3785998017367404,0.975708693099106,-1.1521187657221645,1.1553023636018702,0.41587738192954643,-2.692214904064087,
0.3881035718822875,0.9678685987333482,-1.1483686782161078,1.1570437153814943,0.4260853718978476,-2.692274427934756,
0.39753405953404475,0.9599180863794871,-1.144546385178463,1.1586267762773304,0.43623629556128435,-2.6921323503324386,
0.4068904511826534,0.9518627023682565,-1.1406535200139853,1.1600710688676117,0.4463275256184536,-2.691808844760385,
0.41617199793339177,0.9437078805564221,-1.1366916864511971,1.1613940849753766,0.456356581200619,-2.6913221217221155,
0.4253780143960526,0.9354589373967329,-1.1326624573725774,1.1626115101250358,0.4663211200879314,-2.6906886490560273,
0.4345078774903639,0.9271210676953396,-1.1285673738321464,1.1637374195984505,0.4762189320411058,-2.6899233438819508,
0.4435610251745466,0.9186993410202383,-1.1244079442479629,1.1647844502123785,0.486047933037209,-2.6890397402986514,
0.45253695510449565,0.9101986987236973,-1.1201856437571394,1.1657639512700153,0.49580616023584934,-2.688050136300545,
0.46143522323093816,0.9016239515414433,-1.1159019137211468,1.166686117588697,0.5054917675329713,-2.6869657228296373,
0.47025544234175015,0.8929797777315083,-1.1115581613694763,1.1675601070510908,0.51510302158494,-2.685796697422472,
0.47899728055642476,0.8842707217160901,-1.1071557595700865,1.1683941447505555,0.524638298206679,-2.684552364533767,
0.48766045977945993,0.875501193190449,-1.1026960467154816,1.1691956154883267,0.5340960790650885,-2.683241224304024,
0.4962447541191896,0.8666754666637516,-1.098180326713738,1.1699711461193048,0.5434749486034683,-2.681871051276212,
0.5047499882783347,0.8577976813978384,-1.0936098690743241,1.1707266790250188,0.5527735911447522,-2.6804489643471987,
0.5047499882783347,0.8577976813978384,-1.0936098690743241,1.1707266790250188,0.5527735911447522,-2.6804489643471987,
0.5001121252823151,0.8418067003243047,-1.085305186931926,1.1552746066373107,0.5516859604941065,-2.663592242079527,
0.495551673486869,0.8260550718658307,-1.0770323279105176,1.1401125958425682,0.5507247728453495,-2.647104451595495,
0.4910668958409117,0.8105346995614884,-1.0687892338988083,1.1252405005767192,0.5498817669903641,-2.6309817926163754,
0.48665610028271655,0.795237906192526,-1.0605739792833824,1.1106576533809867,0.549149033429201,-2.615220145986967,
0.4823176385983842,0.7801574009232387,-1.0523847591879156,1.0963629002079405,0.5485190057943069,-2.5998150941876697,
0.4780499052956542,0.7652862498740056,-1.0442198789743589,1.082354636013256,0.5479844520592437,-2.5847619439316003,
0.47385133649533123,0.7506178496959534,-1.036077744847999,1.0686308406057503,0.5475384655307701,-2.570055750171962,
0.4697204088414177,0.7361459037734148,-1.0279568554289316,1.0551891142991066,0.547174455638383,-2.555691340935019,
0.46565563843085395,0.7218644007340916,-1.019855794172126,1.0420267129842917,0.5468861385455358,-2.5416633424867174,
0.4616555797636129,0.7077675949919466,-1.0117732225347928,1.0291405823101423,0.5466675276136895,-2.5279662044239917,
0.4577188247137447,0.6938499890857719,-1.0037078738036465,1.0165273907211165,0.546512923754725,-2.514594224355583,
0.45384400152183,0.6801063176084762,-0.9956585475064178,1.0041835611559784,0.5464169057095682,-2.501541571902457,
0.4500297738091959,0.6665315325492897,-0.9876241043419384,0.9921053012595719,0.5463743202916067,-2.488802311805247,
0.44627483961412623,0.6531207898942373,-0.9796034615715965,0.9802886320021095,0.5463802726329572,-2.4763704259761163,
0.4425779304502206,0.6398694373499626,-0.9715955888222356,0.9687294146370016,0.5464301164701979,-2.4642398343756455,
0.4389378103869628,0.6267730030728865,-0.9635995042567583,0.9574233759595931,0.5465194445040457,-2.452404414632439,
0.4353532751826797,0.6138271854010692,-0.9556142711116371,0.9463661320872631,0.5466440788478404,-2.4408580205944848,
0.431823151285995,0.6010278428802935,-0.9476389943373902,0.9355532093586251,0.5468000616980625,-2.42959449832337,
0.4283462951721413,0.5883709860801749,-0.9396728178998945,0.9249800659752179,0.5469836459867102,-2.4186077032548994,
0.4249215923823383,0.5758527689825912,-0.9317149219153178,0.9146421095512592,0.5471912864008198,-2.40789151348241,
0.4215479567472312,0.5634694815259642,-0.9237645202097261,0.9045347143528156,0.5474196305108319,-2.397439843058612,
0.41822432959850636,0.5512175425758149,-0.9158208580310043,0.8946532367714148,0.5476655101382718,-2.3872466537803216,
0.41494967900153756,0.5390934933871281,-0.9078832099376257,0.8849930293607013,0.5479259329571178,-2.3773059657739988,
0.41172299900874204,0.5270939915143703,-0.8999508778477979,0.8755494535109462,0.5481980743399449,-2.3676118669382564,
0.408543308933301,0.5152158051297415,-0.892023189234292,0.8663178908389173,0.5484792694574265,-2.3581585213039493,
0.4054096526428777,0.5034558077143784,-0.8840994954517906,0.8572937533718691,0.5487670056374503,-2.3489401763752817,
0.4023210978729548,0.4918109730908817,-0.8761791701849466,0.848472492604479,0.5490589149880079,-2.339951169516838,
0.39927673555939347,0.48027837076873986,-0.8682616080065594,0.8398496075066213,0.5493527672861304,-2.3311859334517413,
0.3962756791898145,0.46885516157708484,-0.8603462230363133,0.8314206515582186,0.5496464631334363,-2.322639000935615,
0.39331706417338475,0.45753859356171417,-0.8524324476914925,0.8231812388850744,0.5499380273773841,-2.3143050086696833,
0.39040004722859345,0.44632599812554935,-0.8445197315218945,0.8151270495668399,0.5502256027960084,-2.3061787005145002,
0.38752380578859885,0.43521478639370276,-0.8366075401219334,0.8072538341851642,0.5505074440427954,-2.2982549300634845,
0.3846875374237178,0.4242024457860445,-0.8286953541135585,0.7995574176767112,0.5507819118473847,-2.2905286626328225,
0.3818904592806406,0.41328653678180055,-0.8207826681942412,0.7920337025522478,0.5510474674669819,-2.2829949767214592,
0.37913180753794196,0.4024646898620531,-0.8128689902447709,0.7846786715394207,0.5513026673826766,-2.275649064991924,
0.3764108368774743,0.3917346026173201,-0.80495384049211,0.7774883897032643,0.5515461582343256,-2.2684862348196866,
0.3737268199712208,0.38109403700849787,-0.7970367507229595,0.7704590060949057,0.5517766719872119,-2.261501908455671,
0.3710790469832,0.3705408167704691,-0.7891172635440805,0.7635867549754708,0.55199302132336,-2.254691622843513,
0.3684668250860095,0.3600728249485765,-0.7811949316857508,0.7568679566587779,0.5521940952501381,-2.248051029130163,
0.36588947799161003,0.3496880015590137,-0.7732693173450559,0.7502990180131812,0.5523788549186023,-2.241575891905566,
0.3633463454959501,0.3393843413648733,-0.7653399915659774,0.7438764326597601,0.5525463296439556,-2.235262088204319,
0.36083678303704486,0.329159891760318,-0.7574065336535101,0.7375967809011177,0.55269561312043,-2.229105606299597,
0.35836016126612275,0.3190127507558912,-0.7494685306192499,0.7314567294122116,0.5528258598229314,-2.2231025443170713,
0.355915865631468,0.3089410650585698,-0.7415255766561146,0.7254530307220045,0.5529362815878331,-2.2172491086941677,
0.3535032959745888,0.29894302824063207,-0.7335772726400366,0.7195825225122238,0.5530261443654004,-2.211541612507758,
0.35112186613835156,0.28901687899188033,-0.7256232256566374,0.7138421267572017,0.5530947651364474,-2.2059764736912757,
0.34877100358673047,0.279160899450154,-0.7176630485510513,0.7082288487265943,0.5531415089859889,-2.2005502131602785,
0.3464501490358277,0.26937341360545347,-0.7096963594992022,0.7027397758707609,0.5531657863268101,-2.195259452863644,
0.34415875609582736,0.25965278577332684,-0.7017227815989607,0.6973720766067243,0.5531670502660728,-2.1901009137758973,
0.3418962909235588,0.24999741913348292,-0.6937419424797335,0.6921229990209049,0.5531447941082769,-2.185071413844611,
0.33966223188534733,0.24040575432988534,-0.6857534739291336,0.6869898695032325,0.553098548988104,-2.1801678659053514,
0.33745606922984245,0.2308762681288236,-0.6777570115354751,0.68197009132577,0.5530278816268966,-2.175387275575339,
0.3352773047705214,0.2214074721317209,-0.669752194344939,0.6770611431776561,0.5529323922067408,-2.1707267391357634,
0.33312545157757306,0.21199791153963082,-0.661738664532311,0.6722605776669276,0.5528117123563487,-2.1661834414115835,
0.33100003367887415,0.20264616396658658,-0.6537160670842883,0.6675660197986671,0.5526655032431684,-2.1617546536566237,
0.328900585769783,0.19335083829915578,-0.6456840494944092,0.6629751654378936,0.5524934537663678,-2.157437731450854,
0.3268266529314755,0.18411057359971184,-0.6376422614687166,0.6584857797646838,0.5522952788455603,-2.1532301126159066,
0.3247777903575645,0.17492403805109452,-0.6295903546413314,0.654095695728155,0.5520707178003686,-2.149129315154104,
0.3227535630887435,0.16578992794047287,-0.6215279822991564,0.6498028125051712,0.5518195328161307,-2.145132935215598,
0.3207535457552098,0.15670696668035725,-0.6134547991149755,0.6456050939689438,0.5515415074912627,-2.141238645097588,
0.31877732232662587,0.14767390386483892,-0.6053704608882686,0.641500567172061,0.5512364454620029,-2.137444191279037,
0.31682448586938283,0.13868951435921945,-0.5972746242930808,0.6374873208479018,0.5509041691004555,-2.13374739249377,
0.3148946383109444,0.1297525974213414,-0.5891669466323425,0.6335635039338984,0.5505445182820456,-2.130146137844439,
0.31298739021104677,0.12086197585298024,-0.5810470855980497,0.6297273241196254,0.5501573492186888,-2.126638384959369,
0.3111023605395467,0.11201649517978896,-0.57291469903676,0.6259770464223033,0.5497425333541438,-2.123222158194006,
0.30923917646070587,0.10321502285833427,-0.5647694447198688,0.6223109917919086,0.5492999563182104,-2.1198955468783085,
0.30739747312371674,0.09445644750887452,-0.5566109801181784,0.6187275357477774,0.5488295169365758,-2.116656703611184,
0.3055768934592727,0.08573967817256402,-0.5484389621802659,0.6152251070482734,0.548331126293293,-2.1135038426027966,
0.30377708798199704,0.07706364359187187,-0.5402530471142044,0.6118021863948467,0.5478047068430125,-2.1104352380653597,
0.3019977145985467,0.06842729151302833,-0.5320528901721854,0.6084573051715615,0.5472501915702402,-2.1074492226528316,
0.3002384384212168,0.05982958800940497,-0.5238381454376269,0.6051890442209842,0.5466675231930302,-2.104544185949775,
0.298498931586875,0.051269516824756875,-0.5156084656143541,0.6019960326571344,0.5460566534086573,-2.101718573009476,
0.2967788730810587,0.042746078735321366,-0.5073635018174502,0.5988769467160409,0.5454175421789338,-2.0989708829413156,
0.2950779485670775,0.03425829092981049,-0.4991029033654001,0.5958305086443202,0.544750157052964,-2.0962996675472674,
0.2933958502199656,0.02580518640637437,-0.49082631757314504,0.5928554856260762,0.5440544725252334,-2.0937035300073106,
0.29173227656513273,0.017385813385652947,-0.48253338954568137,0.5899506887483057,0.5433304694270469,-2.0911811236134743,
0.290086932321571,0.008999234739070027,-0.4742237619718441,0.5871149720049333,0.5425781343494307,-2.0887311505521744,
0.2884595282494746,0.0006445274315585818,-0.46589707491791976,0.5843472313395075,0.5417974590957061,-2.0863523607344456,
0.28684978100213926,-0.007679218022062447,-0.4575529656207391,0.5816464037265473,0.5409884401620423,-2.0840435506736537,
0.2852574129820067,-0.01597289808782061,-0.44919106827989885,0.5790114662914733,0.5401510782443811,-2.0818035624102267,
0.2836821522007305,-0.02423739673114101,-0.4408110138487775,0.5764414354690303,0.5392853777702079,-2.0796312824829575,
0.2821237321431366,-0.03247358592393169,-0.4324124298239892,0.5739353662000788,0.5383913464537203,-2.0775256409463916,
0.2805818916349612,-0.04068232614087585,-0.4239949400329418,0.5714923511666131,0.53746899487303,-2.075485610433842,
0.27905637471425054,-0.04886446684558635,-0.41555816441915167,0.5691115200648658,0.5365183360680913,-2.073510205265567,
0.2775469305063102,-0.057020846967266926,-0.40710171882496676,0.5667920389163468,0.5355393851581249,-2.0715984806016645,
0.2760533131020967,-0.06515229536849619,-0.3986252147713515,0.5645331094166842,0.5345321589773646,-2.0697495316392738,
0.2745752814399447,-0.07325963130474858,-0.39012825923437433,0.5623339683221302,0.5334966757280166,-2.0679624928536655,
0.27311259919053343,-0.0813436648762342,-0.3816104544180447,0.5601938868736367,0.5324329546493729,-2.0662365372828875,
0.2716650346449871,-0.0894051974726547,-0.3730713975231243,0.5581121702584062,0.5313410157020801,-2.064570875855616,
0.2702323606060218,-0.09744502221142438,-0.3645106805115481,0.5560881571088803,0.5302208792666046,-2.0629647567619522,
0.2688143542820425,-0.10546392436993927,-0.3559278898660655,0.5541212190391355,0.5290725658549944,-2.061417464866916,
0.2674107971841022,-0.11346268181243117,-0.3473226063447066,0.5522107602187261,0.5278960958350691,-2.0599283211664665,
0.26602147502564,-0.12144206541196424,-0.3386944047296785,0.5503562169840343,0.5266914891662232,-2.058496682285917,
0.26464617762491033,-0.12940283946810838,-0.330042853570265,0.548557057487257,0.5254587651460542,-2.0571219400206857,
0.263284698810027,-0.13734576212084007,-0.32136751491929977,0.5468127813832047,0.5241979421670792,-2.055803520919383,
0.2619368363265415,-0.14527158576119345,-0.3126679440627732,0.5451229195541487,0.52290903748282,-2.0545408859093,
0.2606023917474826,-0.15318105743921295,-0.3039436892421008,0.5434870338730287,0.5215920669825868,-2.053333529964459,
0.2592811703857809,-0.16107491926973577,-0.2951942913685771,0.5419047170053832,0.5202470449743046,-2.0521809818164307,
0.257972981209011,-0.16895390883654798,-0.2864192837295096,0.5403755922504662,0.5188739839747689,-2.0510828037082445,
0.25667763675638094,-0.17681875959545945,-0.27761819168551166,0.5388993134220725,0.5174728945067313,-2.0500385911917776,
0.25667763675638094,-0.17681875959545945,-0.27761819168551166,0.5388993134220725,0.5174728945067313,-2.0500385911917776,
0.25169700386121474,-0.17516865763243283,-0.2794681826100549,0.5297508641672806,0.5153660060117649,-2.0420328843871696,
0.2467062033644737,-0.17355760755367516,-0.2812726199097673,0.5205214706591081,0.5132855399811432,-2.0339498338627506,
0.2417054534743271,-0.17198577375359192,-0.2830314460162137,0.5112112052909344,0.5112322577934021,-2.0257894078661285,
0.2366949752588084,-0.17045331801913982,-0.28474460401750906,0.5018201988573382,0.50920692205865,-2.0175516337726727,
0.23167499260055696,-0.1689603994170714,-0.2864120377171823,0.49234864259852507,0.5072102959624186,-2.00923660012814,
0.22664573214832634,-0.16750717418180755,-0.2880336916935852,0.48279679019741384,0.5052431425840983,-2.0008444586433622,
0.221607423266582,-0.16609379560480197,-0.2896095113581526,0.47316495973298706,0.5033062241901578,-1.9923754261443414,
0.2165602979832076,-0.16472041392550715,-0.291139443012488,0.46345353558094726,0.5014003015026237,-1.9838297864687755,
0.21150459093534166,-0.1633871762240297,-0.2926234339042535,0.4536629702523793,0.4995261329434102,-1.975207892299717,
0.20644053931336442,-0.16209422631560003,-0.29406143228181436,0.4437937861608033,0.49768447385521036,-1.9665101669267402,
0.20136838280306324,-0.16084170464694017,-0.2954533874476268,0.43384657730773346,0.49587607569979314,-1.957737105924736,
0.19628836352600146,-0.1596297481946417,-0.29679924981032707,0.42382201087662413,0.4941016852346754,-1.9488892787402112,
0.19120072597812074,-0.15845849036565943,-0.2980989709354916,0.41372082872490046,0.4923620436692788,-1.9399673301747968,
0.1861057169666108,-0.15732806090000842,-0.29935250359504595,0.40354384876364835,0.4906578858018195,-1.930971981755541,
0.18100358554507812,-0.1562385857757808,-0.30055980181528175,0.393291966214454,0.4889899391383199,-1.9219040329814843,
0.17589458294705215,-0.15519018711657237,-0.3017208209234572,0.3829661547328948,0.4873589229952723,-1.9127643624360247,
0.17077896251786687,-0.15418298310141387,-0.302835517592955,0.37256746738822694,0.4857655475876334,-1.9035539287546346,
0.1656569796449588,-0.15321708787731314,-0.3039038498869579,0.36209703748896727,0.48421051310396596,-1.8942737714376274,
0.1605288916866245,-0.15229261147449338,-0.304925777300624,0.3515560792442669,0.48269450877069003,-1.8849250114978964,
0.15539495789928326,-0.15140965972442325,-0.3059012608017293,0.34094588825127786,0.48121821190754666,-1.8755088519338345,
0.15025543936329155,-0.15056833418073162,-0.30683026286974435,0.3302678417990905,0.4797822869765063,-1.8660265780180332,
0.1451105989073589,-0.14976873204308394,-0.3077127475333338,0.31952339898028287,0.4783873846264938,-1.8564795573928208,
0.13996070103161706,-0.14901094608412202,-0.30854868040623096,0.3087141006016835,0.47703414073641925,-1.8468692399642601,
0.13480601182939422,-0.1482950645795346,-0.30933802872148214,0.29784156888658486,0.47572317545912673,-1.8371971575868662,
0.12964679890775083,-0.14762117124134444,-0.31008076136402446,0.2869075069613867,0.47445509226897564,-1.8274649235320481,
0.12448333130683292,-0.14698934515448978,-0.3107768489015776,0.27591369812046146,0.47323047701587156,-1.8176742317340915,
0.11931587941810169,-0.14639966071676846,-0.31142626361382586,0.26486200486394335,0.4720498969886466,-1.807826855808408,
0.1141447149014996,-0.1458521875822179,-0.3120289795198718,0.25375436770413057,0.47091389999076577,-1.7979246478377762,
0.10897011060161457,-0.14534699060799616,-0.312584972403935,0.24259280373725436,0.46982301343139204,-1.787969536923349,
0.10379234046290511,-0.14488412980482307,-0.3130942198392865,0.2313794049785071,0.4687777434348873,-1.7779635274983587,
0.09861167944405186,-0.14446366029104535,-0.31355670121039,0.22011633645942433,0.46777857397185485,-1.767908697403641,
0.09342840343150013,-0.14408563225037577,-0.31397239773323943,0.20880583408797138,0.46682596601483894,-1.757807195725368,
0.08824278915226146,-0.14375009089335905,-0.31434129247387754,0.19745020227299645,0.4659203567217877,-1.7476612403966796,
0.0830551140860417,-0.14345707642260475,-0.31466337036507974,0.1860518113160537,0.46506215865035777,-1.7374731155662615,
0.07786565637676512,-0.14320662400184112,-0.31493861822118674,0.1746130945749706,0.4642517590060962,-1.727245168738273,
0.0726746947435644,-0.1429987637288104,-0.31516702475108477,0.1631365454049225,0.46348951892746365,-1.7169798076894303,
0.06748250839130726,-0.142833520612054,-0.31534858056930715,0.15162471388416207,0.4627757728105781,-1.7066794971704287,
0.0622893769207315,-0.14271091455160217,-0.31548327820527,0.14008020333292906,0.4621108276764561,-1.6963467554002694,
0.05709558023826028,-0.14263096032360412,-0.3155711121106121,0.12850566663542096,0.46149496258339434,-1.6859841503634119,
0.05190139846557032,-0.14259366756890574,-0.3156120786646474,0.11690380237601769,0.4609284280869907,-1.6755942959209835,
0.04670711184898627,-0.14259904078559582,-0.3156061761779274,0.10527735080221579,0.4604114457501493,-1.6651798477485442,
0.04151300066877391,-0.14264707932552745,-0.31555340489389666,0.09362908962792935,0.45994420770521266,-1.6547434991141026,
0.03631934514840618,-0.1427377773948199,-0.3154537669886567,0.0819618296919315,0.4595268762701844,-1.644287976511201,
0.031126425363874975,-0.14287112405833702,-0.3153072665688271,0.07027841048724168,0.4591595836207786,-1.633816035162914,
0.025934521153122225,-0.14304710324814626,-0.3151139096675063,0.05858169557819124,0.45884243151980825,-1.6233304544135345,
0.020743912025663686,-0.14326569377592874,-0.3148737042383485,0.046874567922715576,0.4585754911051846,-1.6128340330255377,
0.015554877072477869,-0.1435268693493519,-0.31458666014773845,0.03515992511811246,0.4583588027375447,-1.6023295844001029,
0.010367694876232791,-0.14383059859236136,-0.31425278916508886,0.02344067458907,0.45819237590826745,-1.591819931740038,
0.00518264342192283,-0.14417684506937828,-0.31387210495126644,0.01171972873719394,0.4580761892083717,-1.5813079031743766,
7.986418981863985e-12,-0.14456556731337672,-0.31344462304513887,7.154623022222557e-11,0.4580101903585148,-1.5707963268641971,
-0.005179958842024237,-0.14499671885779322,-0.3129703608482812,-0.011715603660152518,0.4579942963000425,-1.560288026109362,
-0.010356957467151926,-0.1454702482722483,-0.31244933760782384,-0.023424184320013624,0.45802839334676254,-1.5497858144758512,
-0.01553072115605263,-0.14598609920202638,-0.3118815743974745,-0.03512285818867526,0.458112337396847,-1.5392924909632224,
-0.020700976233255418,-0.14654421041126073,-0.3112670940967297,-0.04680876071501342,0.4582459542039993,-1.528810835231421,
-0.02586745014459721,-0.1471445158297919,-0.3106059213682735,-0.05847905118812159,0.4584290397067622,-1.5183436029057218,
-0.031029871541767007,-0.14778694460362699,-0.3098980826336018,-0.07013091731338969,0.4586613604145943,-1.507893520978012,
-0.036187970365895224,-0.14847142114894515,-0.3091436060468786,-0.0817615796752189,0.45894265384909483,-1.497463283321906,
-0.04134147793012576,-0.14919786520959147,-0.30834252146704383,-0.09336829606973834,0.45927262903853877,-1.4870555463383652,
-0.046490127001108585,-0.14996619191798544,-0.3074948604281994,-0.10494836569182552,0.45965096706365977,-1.47667292474755,
-0.051633651879354335,-0.15077631185937523,-0.30660065610829174,-0.11649913316177701,0.46007732165242615,-1.466317987541586,
-0.05677178847839179,-0.15162813113937157,-0.30565994329610924,-0.12801799237810021,0.4605513198213721,-1.455993254111805,
-0.06190427440267253,-0.15252155145466692,-0.3046727583566301,-0.13950239018410582,0.4610725625608803,-1.445701190562811,
-0.06703084902416756,-0.15345647016688468,-0.303639139194727,-0.15094982983724628,0.4616406255616728,-1.4354442062244441,
-0.07215125355760407,-0.15443278037944813,-0.3025591252172772,-0.16235787427146814,0.4622550599796372,-1.4252246503714088,
-0.07726523113429064,-0.15545037101740194,-0.3014327572936863,-0.17372414914419665,0.4629153932360137,-1.415044809158963,
-0.08237252687448239,-0.1565091269100999,-0.30026007771485214,-0.18504634566095293,0.46362112984988085,-1.404906902781693,
-0.08747288795823993,-0.15760892887664765,-0.2990411301506158,-0.19632222317198897,0.46437175229981914,-1.3948130828610104,
-0.09256606369473609,-0.15874965381403075,-0.29777595960570485,-0.20754961153670826,0.4651667219115834,-1.3847654300656145,
-0.09765180558996915,-0.15993117478782146,-0.2964646123742131,-0.218726413253009,0.46600547976859485,-1.374765951967806,
-0.10272986741284167,-0.16115336112536974,-0.29510713599263755,-0.22985060535002633,0.466887447642053,-1.3648165811371884,
-0.1078000052595662,-0.16241607851138054,-0.293703579191509,-0.24092024104404547,0.4678120289374941,-1.3549191734719939,
-0.11286197761636282,-0.16371918908577854,-0.29225399184564116,-0.2519334511586172,0.46877860965464074,-1.3450755067670195,
-0.11791554542041449,-0.16506255154375957,-0.2907584249230312,-0.26288844531109334,0.46978655935744823,-1.335287279515959,
-0.12296047211904813,-0.16644602123792807,-0.2892169304324411,-0.2737835128689313,0.4708352321513083,-1.3255561099447937,
-0.1279965237271138,-0.16786945028241546,-0.28762956136969214,-0.2846170236801728,0.47192396766446126,-1.3158835352718377,
-0.13302346888253314,-0.16933268765888115,-0.28599637166269887,-0.29538742858347544,0.4730520920307469,-1.3062710111890665,
-0.13804107889999487,-0.1708355793242863,-0.28431741611528266,-0.30609325970397816,0.4742189188709406,-1.296719911558449,
-0.1430491278227733,-0.17237796832034608,-0.28259275034978154,-0.3167331305420785,0.47542375027003037,-1.2872315283161997,
-0.14804739247265084,-0.17395969488454976,-0.2808224307484977,-0.32730573586293793,0.47666587774791275,-1.2778070715771441,
-0.15303565249792728,-0.17558059656264555,-0.27900651439401286,-0.33780985139514497,0.4779445832211239,-1.2684476699307512,
-0.1580136904195004,-0.17724050832249122,-0.27714505900839254,-0.3482443333475267,0.4792591399533544,-1.259154370919847,
-0.1629812916750038,-0.1789392626691726,-0.2752381228913136,-0.35860811775353874,0.48060881349264284,-1.2499281416925667,
-0.16793824466099408,-0.18067668976127263,-0.2732857648571503,-0.36890021965304753,0.4819928625932873,-1.240769869817726,
-0.1728843407731761,-0.1824526175282091,-0.2712880441710357,-0.3791197321215885,0.48341054012066703,-1.2316803642535152,
-0.177819374444662,-0.18426687178852935,-0.2692450204839356,-0.38926582515739955,0.48486109393731486,-1.222660356459206,
-0.18274314318225943,-0.18611927636907025,-0.2671567537667563,-0.3993377444366489,0.48634376776873034,-1.2137105016394378,
-0.18765544760078737,-0.18800965322488605,-0.2650233042435143,-0.40933480994733185,0.4878578020475783,-1.2048313801105968,
-0.19255609145541933,-0.18993782255984357,-0.2628447323235999,-0.41925641451229706,0.4894024347350607,-1.196023498778805,
-0.1974448816720581,-0.19190360294780137,-0.2606210985331452,-0.4291020222117879,0.4909769021183956,-1.1872872927191216,
-0.20232162837574388,-0.1939068114542765,-0.25835246344553486,-0.4388711667157374,0.4925804395834855,-1.178623126845695,
-0.20718614491710569,-0.19594726375850388,-0.2560388876110761,-0.44856344953588645,0.4942122823619827,-1.1700312976627767,
-0.21203824789686046,-0.1980247742758159,-0.2536804314858466,-0.45817853820753573,0.49587166625210594,-1.161512035086765,
-0.21687775718837513,-0.20013915628024107,-0.2512771553597494,-0.4677161644104843,0.4975578283126794,-1.1530655043297013,
-0.22170449595829927,-0.2022902220272541,-0.2488291192837853,-0.4771761220383777,0.49927000752999395,-1.1446918078349722,
-0.2265182906852856,-0.20447778287658955,-0.24633638299656282,-0.4865582652253541,0.5010074454572006,-1.136390987256304,
-0.2313189711768128,-0.2067016494150394,-0.24379900585007455,-0.4958625063384937,0.502769386826063,-1.1281630254715183,
-0.23610637058412828,-0.20896163157917397,-0.2412170467347326,-0.5050888139441915,0.504555080130992,-1.1200078486228968,
-0.24088032541533066,-0.21125753877789638,-0.23859056400369938,-0.5142372107561594,0.5063637781853819,-1.1119253281764305,
-0.24564067554661198,-0.21358918001478078,-0.2359196153965122,-0.5233077715723352,0.5081947386503665,-1.1039152829926338,
-0.25038726423168206,-0.21595636401011367,-0.23320425796201932,-0.5323006212075527,0.5100472245361812,-1.0959774814020504,
-0.25038726423168206,-0.21595636401011367,-0.23320425796201932,-0.5323006212075527,0.5100472245361812,-1.0959774814020504,
-0.25168308067179546,-0.20776079946000864,-0.24258938336630284,-0.5335789595190794,0.511664704259259,-1.095157847958832,
-0.2529920904293529,-0.19955359773378348,-0.2519430195201752,-0.5349141654726126,0.5132513004233625,-1.0942803878824694,
-0.2543144914726679,-0.19133392648586856,-0.2612657665750748,-0.5363064662732162,0.5148070154215143,-1.0933448211813954,
-0.25565048565240617,-0.18310095075621885,-0.270558213068073,-0.5377561262193441,0.5163318481126618,-1.092350827809329,
-0.25700027879622994,-0.17485383245352829,-0.27982093637160793,-0.5392634466091303,0.5178257940477929,-1.0912980476741057,
-0.25836408080452694,-0.16659172983948847,-0.2890545031297482,-0.5408287656902447,0.5192888457020257,-1.0901860805983223,
-0.2597421057488303,-0.15831379701446752,-0.298259469679618,-0.5424524586668156,0.5207209927131107,-1.0890144862184583,
-0.2611345719730131,-0.15001918340378043,-0.307436382458886,-0.5441349377621522,0.5221222221270695,-1.0877827838235878,
-0.26254170219734607,-0.1417070332437767,-0.3165857784001265,-0.5458766523361763,0.5234925186517096,-1.0864904521346137,
-0.2639637236255102,-0.13337648506695182,-0.32570818531286144,-0.5476780890565981,0.5248318649187977,-1.085136929024815,
-0.2654008680546574,-0.1250266711853156,-0.33480412225403977,-0.5495397721230145,0.5261402417557044,-1.0837216111823478,
-0.266853371988618,-0.11665671717125727,-0.3438740998876705,-0.5514622635432308,0.5274176284673712,-1.0822438537152046,
-0.2683214767543551,-0.10826574133514509,-0.3529186208343076,-0.5534461634612224,0.5286640031294906,-1.0807029696990107,
-0.2698054286217705,-0.09985285419890469,-0.3619381800110509,-0.5554921105362642,0.5298793428938349,-1.0790982296679121,
-0.2713054789269711,-0.09141715796482093,-0.3709332649626992,-0.5576007823728506,0.5310636243067097,-1.0774288610487017,
-0.2728218841991062,-0.08295774597880577,-0.3799043561846704,-0.5597728960011268,0.5322168236415692,-1.07569404753822,
-0.27435490629089293,-0.0744737021873704,-0.38885192743828617,-0.5620092084076317,0.5333389172468707,-1.0738929284239738,
-0.27590481251294807,-0.065964100587534,-0.39777644605898604,-0.5643105171162361,0.5344298819103079,-1.0720245978478145,
-0.2774718757720524,-0.057428004668888775,-0.4066783732580408,-0.566677660819222,0.5354896952406267,-1.0700881040124448,
-0.2790563747134735,-0.04886446684703908,-0.41555816441829385,-0.5691115200585187,0.5365183360682834,-1.0680824483304356,
-0.28065859386748204,-0.04027252788761072,-0.4244162693844672,-0.571613017957159,0.5375157848662822,-1.066006584515365,
-0.282278823800197,-0.031651216320013206,-0.4332531327485443,-0.5741831210010692,0.5384820241925937,-1.06385941761463,
-0.28391736126890416,-0.02299954784012295,-0.44206919413074003,-0.5768228398713435,0.5394170391556414,-1.061639802983424,
-0.28557450938199386,-0.014316524701033262,-0.45086488845655076,-0.5795332303271781,0.5403208179044235,-1.0593465451993225,
-0.28725057776367013,-0.005601135090994487,-0.4596406462303813,-0.5823153941396647,0.5411933521449201,-1.0569783969168807,
-0.28894588272359095,0.003147647502362706,-0.46839689380623545,-0.585170480076652,0.5420346376845396,-1.0545340576616147,
-0.2906607474316003,0.011930864942444837,-0.47713405365595457,-0.5880996849388719,0.5428446750064474,-1.0520121725627205,
-0.29239550209772364,0.020749575109719337,-0.48585254463548205,-0.5911042546475296,0.5436234698757304,-1.049411331023862,
-0.2941504841575993,0.029604852584338613,-0.494552782249647,-0.5941854853835125,0.544371033979465,-1.0467300653313796,
-0.2959260384635291,0.03849778934639848,-0.5032351789159444,-0.5973447247783441,0.5450873856028647,-1.0439668491992626,
-0.2977225174813342,0.04742949549490356,-0.5119001442278064,-0.6005833731569463,0.545772550343822,-1.0411200962502685,
-0.2995402814932105,0.05640109998655562,-0.5205480852178562,-0.6039028848321987,0.5464265618682795,-1.0381881584326136,
-0.30137969880678406,0.06541375139553017,-0.5291794066216509,-0.6073047694511924,0.5470494627090172,-1.0351693243717148,
-0.30324114597057455,0.07446861869546036,-0.537794511142424,-0.6107905933929634,0.5476413051105784,-1.0320618176565428,
-0.30512500799608144,0.0835668920648984,-0.5463937997173508,-0.6143619812173514,0.5482021519232249,-1.028863795060238,
-0.30703167858671526,0.09270978371758905,-0.5549776717858776,-0.6180206171644632,0.5487320775489721,-1.0255733446947823,
-0.3089615603738035,0.10189852875895831,-0.5635465255606671,-0.6217682467040426,0.5492311689429255,-1.0221884840996376,
-0.31091506515990897,0.11113438607027663,-0.5721007583017246,-0.6256066781338079,0.5496995266733332,-1.0187071582644638,
-0.3128926141697086,0.12041863922206186,-0.5806407665943152,-0.6295377842255839,0.5501372660439527,-1.015127237586218,
-0.314894638308683,0.12975259741833378,-0.5891669466312672,-0.6335635039177423,0.5505445182825359,-1.0114465157611843,
-0.31692157842988417,0.13913759647345278,-0.5976796945003211,-0.6376858440521387,0.5509214317994545,-1.0076627076127653,
-0.31897388560905116,0.14857499982335515,-0.6061794064771853,-0.6419068811533533,0.5512681735207049,-1.0037734468561805,
-0.3210520214283544,0.15806619957310591,-0.6146664793250077,-0.6462287632476059,0.5515849302997662,-0.9997762838015897,
-0.32315645826906003,0.16761261758280688,-0.6231413106010025,-0.6506537117182224,0.551871910413037,-0.9956686829975819,
-0.3252876796134153,0.17721570659401892,-0.6316042989710129,-0.6551840231939958,0.552129345143819,-0.9914480208174385,
-0.32744618035606315,0.1868769513989888,-0.6400558445328338,-0.6598220714661456,0.5523574904600935,-0.9871115829911264,
-0.32963246712530736,0.19659787005511598,-0.648496349149165,-0.6645703094288988,0.5525566287916068,-0.9826565620865801,
-0.3318470586145593,0.2063800151472548,-0.6569262167911271,-0.6694312710379423,0.5527270709120655,-0.9780800549445197,
-0.3340904859243071,0.2162249751006147,-0.6653458538933199,-0.6744075732801222,0.5528691579325423,-0.9733790600718057,
-0.3363632929149592,0.2261343755472036,-0.6737556697214765,-0.6795019181468135,0.5529832634125001,-0.9685504749992087,
-0.33866603657092553,0.23610988074896716,-0.6821560767538295,-0.6847170946023122,0.5530697955951426,-0.9635910936104002,
-0.34099928737631313,0.24615319508099162,-0.6905474910773953,-0.6900559805374153,0.5531291997741418,-0.9584976034500551,
-0.3433636297026175,0.2562660645783716,-0.6989303328004534,-0.6955215446970433,0.5531619607990983,-0.9532665830201242,
-0.34575966220881427,0.2664502785506193,-0.7073050264826055,-0.7011168485693222,0.5531686057274349,-0.9478944990746356,
-0.3481879982542538,0.2767076712677594,-0.7156720015838919,-0.7068450482219322,0.553149706630752,-0.9423777039248331,
-0.3506492663247851,0.28704012372257276,-0.7240316929345642,-0.7127093960697884,0.5531058835640088,-0.9367124327680433,
-0.35314411047254235,0.29744956547380064,-0.7323845412272373,-0.7187132425561951,0.553037807706225,-0.9308948010553999,
-0.35567319076983694,0.30793797657547,-0.7407309935332738,-0.724860037727494,0.5529462046817242,-0.9249208019154793,
-0.3582371837776165,0.31850738959794045,-0.7490715038454178,-0.7311533326789453,0.5528318580712525,-0.918786303652977,
-0.36083678302895983,0.3291598917467068,-0.7574065336488576,-0.7375967808470604,0.5526956131226095,-0.9124870473438362,
-0.3634726995280886,0.3398976270854765,-0.7657365525230716,-0.7441941391208716,0.5525383806707124,-0.9060186445507281,
-0.3661456622653938,0.35072279887061725,-0.7740620387770405,-0.7509492687416925,0.5523611412772649,-0.8993765751854432,
-0.36885641874897995,0.361637672004643,-0.7823834801206038,-0.7578661359577104,0.5521649496004307,-0.892556185547663,
-0.371605735553245,0.37264457561708103,-0.7907013743750136,-0.7649488123963133,0.5519509390050956,-0.8855526865727017,
-0.3743943988850279,0.3837459057818153,-0.7990162302260044,-0.7722014751133917,0.5517203264244311,-0.8783611523241149,
-0.37722321516786056,0.3949441283807847,-0.8073285680230023,-0.7796284062748773,0.5514744174835592,-0.8709765187706601,
-0.380093011644875,0.40624178212485834,-0.8156389206284468,-0.7872339924216238,0.5512146118961077,-0.8633935828908292,
-0.38300463700092796,0.4176414817436789,-0.8239478343215692,-0.7950227232642707,0.5509424091443909,-0.8556070021521753,
-0.3859589620045067,0.42914592135741925,-0.8322558697614001,-0.8029991899500865,0.5506594144537532,-0.8476112944167814,
-0.38895688016999774,0.4407578780446255,-0.8405636030142455,-0.8111680827388941,0.5503673450713492,-0.8394008383285575,
-0.39199930844089903,0.45248021562172225,-0.8488716266513996,-0.819534188020134,0.5500680368592137,-0.8309698742424787,
-0.3950871878945636,0.46431588865132406,-0.8571805509234478,-0.8281023845979139,0.549763451210918,-0.8223125057603935,
-0.39822148446907113,0.47626794669823375,-0.8654910050181774,-0.8368776391656181,0.5494556823003979,-0.8134227019425619,
-0.40140318971281896,0.48833953885399284,-0.8738036384098481,-0.8458650008863486,0.5491469646706215,-0.8042943002685334,
-0.40463332155743187,0.500533918553047,-0.882119122308406,-0.8550695949902477,0.548839681168673,-0.7949210104252797,
-0.40791292511458044,0.5128544487060778,-0.8904381512181644,-0.8644966152946891,0.5485363712324832,-0.7852964190045147,
-0.4112430734973014,0.5253046071788904,-0.8987614446165276,-0.8741513155486346,0.5482397395328641,-0.7754139951946835,
-0.4146248686663994,0.5378879926483966,-0.9070897487645226,-0.8840389994981543,0.5479526649726593,-0.765267097556106,
-0.41805944230250325,0.5506083308708704,-0.9154238386622603,-0.8941650095665629,0.5476782100426829,-0.7548489819698758,
-0.42154795670433315,0.5634694814017382,-0.9237645201639803,-0.9045347140399165,0.5474196305316908,-0.7441528108522066,
-0.42509160571371646,0.5764754448108321,-0.9321126322690633,-0.9151534926470904,0.5471803855848699,-0.7331716637256337,
-0.42869161566786995,0.5896303704423624,-0.9404690496073926,-0.9260267204236098,0.5469641481022604,-0.7218985492364871,
-0.4323492463794322,0.602938564774963,-0.9488346851397067,-0.9371597497501691,0.5467748154651141,-0.7103264187039822,
-0.43606579217647473,0.616404500550934,-0.9572104931359737,-0.9485578907051241,0.5466165205564792,-0.6984481810264415,
-0.43984258281551825,0.630032826119879,-0.9655974722251968,-0.9602263881957647,0.546493643161687,-0.686256720502037,
-0.4436809847285964,0.643828376602324,-0.9739966691142691,-0.972170399302352,0.5464108214674778,-0.6737449139729685,
-0.4475824020003574,0.6577961849749527,-0.9824091822696499,-0.9843949661507737,0.5463729639665231,-0.6609056521014572,
-0.45154827752154686,0.6719414946388763,-0.9908361661424725,-0.9969049876511339,0.5463852614883954,-0.6477318612824816,
-0.4555800941433307,0.6862697730165908,-0.999278835768182,-1.009705188734017,0.5464531994155837,-0.6342165275609938,
-0.4596793758613822,0.700786726404447,-1.0077384718249207,-1.0228000872972265,0.546582570026711,-0.6203527222817395,
-0.4638476890297087,0.715498316233652,-1.0162164262073927,-1.0361939588921087,0.546779484920666,-0.6061336293841517,
-0.46808664360407604,0.7304107769156307,-1.0247141281813268,-1.0498907992205107,0.5470503874717817,-0.5915525742050761,
-0.47239789441476837,0.7455306354743775,-1.0332330911935124,-1.0638942845631492,0.547402065263471,-0.5766030535933149,
-0.4767831424682634,0.7608647331999984,-1.041774920423964,-1.0782077303183912,0.5478416624462391,-0.5612787670712133,
-0.4812441362772464,0.7764202495950324,-1.0503413211804933,-1.0928340478978034,0.5483766919661922,-0.5455736486987792,
-0.4857826732181942,0.7922047289295164,-1.0589341082522286,-1.1077757003019628,0.5490150476125999,-0.5294818992041563,
-0.490400600915555,0.808226109773635,-1.0675552163579949,-1.1230346567873644,0.549765015838419,-0.512998017839742,
-0.49509981865131275,0.8244927579401281,-1.0762067118486562,-1.13861234713334,0.5506352873167325,-0.49611683330476875,
-0.4998822787984624,0.8410135033446926,-1.0848908058503526,-1.15450961612695,0.5516349682097791,-0.4788335329418335,
-0.5047499882766333,0.8577976813844655,-1.0936098690691778,-1.1707266790040884,0.5527735911467968,-0.4611436892654596,
-0.5047499882766333,0.8577976813844655,-1.0936098690691778,-1.1707266790040884,0.5527735911467968,-0.4611436892654596,
-0.5047499882774367,0.862136695672249,-1.0902943984368578,-1.1822198197047278,0.5498328050483504,-0.4476516662175613,
-0.504749988277454,0.866308847973152,-1.0868988415000176,-1.1937103869631784,0.5470058423437876,-0.43418648402378063,
-0.5047499882774725,0.8703170344235575,-1.0834247028719828,-1.2051945233444328,0.5442906899976937,-0.42075152885738876,
-0.5047499882774923,0.8741641673048541,-1.079873477386796,-1.2166684891371946,0.5416853217114342,-0.40735006794033773,
-0.5047499882775128,0.8778531686811503,-1.0762466480567137,-1.2281286648709189,0.5391877029043847,-0.3939852479210975,
-0.5047499882775345,0.8813869644289841,-1.0725456841844991,-1.2395715532758316,0.5367957953697957,-0.3806600937504245,
-0.5047499882775562,0.8847684786619031,-1.0687720396297957,-1.250993780723464,0.5345075616078834,-0.36737750801751623,
-0.5047499882775788,0.8880006285442634,-1.0649271512257548,-1.2623920981770278,0.5323209688416128,-0.35414027071840765,
-0.5047499882776016,0.8910863194864975,-1.0610124373414342,-1.2737633816819223,0.5302339927223119,-0.34095103942777366,
-0.5047499882776247,0.8940284407123221,-1.0570292965849515,-1.2851046324273114,0.5282446207336928,-0.3278123498448777,
-0.5047499882776476,0.8968298611868694,-1.0529791066419432,-1.2964129764100067,0.526350855304047,-0.31472661668429275,
-0.5047499882776698,0.89949342589347,-1.0488632232435389,-1.3076856637318532,0.5245507166373536,-0.30169613488221547,
-0.5047499882776924,0.9020219524458005,-1.0446829792577879,-1.3189200675615,0.5228422452748308,-0.2887230810896233,
-0.5047499882777142,0.9044182280213672,-1.0404396838983139,-1.3301136827909243,0.5212235043990251,-0.27580951542412674,
-0.5047499882777355,0.9066850066016953,-1.0361346220438583,-1.341264124416299,0.5196925818929791,-0.2629573834532016,
-0.5047499882777563,0.9088250065042004,-1.0317690536623105,-1.352369125671877,0.5182475921672605,-0.2501685183824497,
-0.5047499882777761,0.9108409081905339,-1.0273442133328692,-1.3634265359444926,0.5168866777677776,-0.2374446434236063,
-0.5047499882777954,0.912735352336055,-1.0228613098599912,-1.374434318495079,0.5156080107773152,-0.22478737431821957,
-0.5047499882778135,0.9145109381451934,-1.0183215259729241,-1.3853905480123379,0.5144097940236185,-0.2121982219941584,
-0.5047499882778306,0.9161702218975876,-1.0137260181047296,-1.396293408022335,0.5132902621066846,-0.19967859533343507,
-0.504749988277847,0.9177157157101661,-1.009075916244888,-1.4071411881764115,0.5122476822576353,-0.18722980403115613,
-0.5047499882778622,0.9191498865006503,-1.0043723238597433,-1.4179322814383748,0.5112803550412359,-0.17485306152678456,
-0.5047499882778766,0.9204751551384064,-0.9996163178752862,-1.428665181190532,0.5103866149137338,-0.16254948799022456,
-0.5047499882778903,0.9216938957689699,-0.9948089487169672,-1.4393384782766667,0.50956483064727,-0.15032011334663317,
-0.5047499882779029,0.9228084352991441,-0.9899512404014984,-1.4499508579987215,0.5088134056316618,-0.13816588032510516,
-0.5047499882779143,0.9238210530300346,-0.9850441906758157,-1.460501097082519,0.5081307780638756,-0.12608764751774337,
-0.5047499882779252,0.9247339804260004,-0.980088771198654,-1.4709880606265746,0.5075154210350123,-0.11408619243679999,
-0.5047499882779349,0.925549401008033,-0.9750859277604028,-1.48141069904675,0.5069658425241181,-0.10216221455880206,
-0.5047499882779438,0.9262694503606878,-0.9700365805371935,-1.4917680450282749,0.5064805853076316,-0.09031633834569924,
-0.5047499882779521,0.9268962162422577,-0.9649416243753905,-1.502059210495488,0.5060582267927619,-0.07854911623416563,
-0.5047499882779597,0.9274317387884699,-0.9598019291029117,-1.5122833836085494,0.5056973787825895,-0.06686103158519424,
-0.5047499882749491,0.9278780106926965,-0.9546183398273365,-1.5224398255470297,0.5053966871839572,-0.05525250185360516,
-0.5047499882758036,0.928236978008652,-0.9493916774405974,-1.5325278685917352,0.5051548316421512,-0.043723880356813696,
-0.504749988276581,0.9285105399122714,-0.944122738763227,-1.5425469117140165,0.5049705251663446,-0.03227546071409625,
-0.5047499882772849,0.9287005496480933,-0.9388122970870661,-1.5524964187905945,0.5048425136740132,-0.020907478462762287,
-0.5047499882779201,0.928808814958731,-0.9334611025355503,-1.5623759155759784,0.5047695755187351,-0.00962011400579756,
-0.5047499882784906,0.9288370986768352,-0.9280698824736254,-1.572184987000957,0.5047505209825351,0.0015865047921579673,
-0.5047499882790009,0.9287871193578293,-0.9226393419256448,-1.5819232745369993,0.5047841917414575,0.012712300079999751,
-0.5047499882794552,0.9286605519478573,-0.9171701639993227,-1.5915904736291904,0.5048694603086332,0.023757241568368444,
-0.5047499882798574,0.9284590284818027,-0.9116630103140027,-1.6011863311997507,0.5050052294587567,0.03472134415221197,
-0.5047499882802118,0.9281841388066709,-0.9061185214316398,-1.6107106432237073,0.5051904316375452,0.0456046656086087,
-0.5047499882805216,0.9278374313259609,-0.9005373172890477,-1.6201632523777711,0.5054240283594406,0.05640730437030681,
-0.504749988280791,0.9274204137610886,-0.8949199976301027,-1.6295440457631276,0.5057050095965183,0.06712939737513907,
-0.5047499882810232,0.9269345539261931,-0.8892671424367188,-1.6388529527024127,0.5060323931612828,0.07777111799108226,
-0.5047499882812216,0.9263812805130223,-0.8835793123575236,-1.6480899426108575,0.5064052240857764,0.08833267401649304,
-0.5047499882813888,0.9257619838828877,-0.8778570491332969,-1.6572550229412628,0.506822573999185,0.09881430575477122,
-0.5047499882815282,0.9250780168629416,-0.8721008760183007,-1.66634823720224,0.5072835405058983,0.10921628416251504,
-0.5047499882816423,0.9243306955443028,-0.8663112981967629,-1.6753696630488788,0.5077872465657711,0.11953890906999207,
-0.504749988281733,0.9235213000798089,-0.8604888031938371,-1.6843194104448653,0.5083328398781501,0.12978250747265913,
-0.5047499882818038,0.9226510754793767,-0.8546338612804563,-1.6931976198948497,0.5089194922710422,0.139947431892253,
-0.5047499882818559,0.9217212324011751,-0.8487469258715638,-1.702004460745758,0.5095463990966367,0.15003405880591597,
-0.5047499882818917,0.9207329479370184,-0.8428284339172901,-1.7107401295556033,0.5102127786342598,0.16004278714169964,
-0.5047499882819131,0.9196873663905311,-0.8368788062866753,-1.7194048485282512,0.510917871501676,0.16997403683871617,
-0.5047499882819213,0.9185856000468509,-0.8308984481436369,-1.7279988640125192,0.5116609400755471,0.17982824747015555,
-0.5047499882819183,0.9174287299327336,-0.82488774931489,-1.736522445063922,0.5124412679217369,0.18960587692734113,
-0.5047499882819053,0.9162178065661077,-0.8188470846496131,-1.7449758820673167,0.5132581592360352,0.19930740016295517,
-0.5047499882818833,0.9149538506942254,-0.8127768143706686,-1.7533594854186851,0.5141109382957993,0.20893330799157145,
-0.5047499882818539,0.9136378540196909,-0.8066772844172405,-1.7616735842642468,0.5149989489229055,0.21848410594559722,
-0.5047499882818179,0.9122707799137346,-0.8005488267787813,-1.7699185252950862,0.5159215539583354,0.22796031318474144,
-0.5047499882817761,0.9108535641162253,-0.7943917598201953,-1.7780946715954917,0.5168781347486496,0.2373624614571444,
-0.50474998828173,0.9093871154219716,-0.7882063885982099,-1.7862024015431748,0.5178680906445366,0.24669109411029513,
-0.5047499882816795,0.907872316352967,-0.78199300516891,-1.7942421077595954,0.5188908385115647,0.2559467651499231,
-0.5047499882816255,0.9063100238162949,-0.7757518888864475,-1.8022141961085782,0.5199458122532236,0.2651300383450294,
-0.5047499882815687,0.9047010697474767,-0.7694833066929342,-1.8101190847414963,0.5210324623462838,0.2742414863773138,
-0.50474998828151,0.9030462617391083,-0.7631875133995674,-1.8179572031872602,0.5221502553884719,0.2832816900332316,
-0.5047499882814489,0.9013463836546785,-0.7568647519590326,-1.8257289914854373,0.5232986736584176,0.2922512374370027,
-0.5047499882813871,0.8996021962275212,-0.7505152537292648,-1.8334348993608214,0.5244772146878037,0.30115072332290166,
-0.504749988281324,0.8978144376448757,-0.7441392387286289,-1.8410753854378394,0.5256853908456105,0.3099807483452246,
-0.5047499882812605,0.8959838241170989,-0.7377369158826287,-1.8486509164931986,0.5269227289343404,0.31874191842435945,
-0.5047499882811962,0.8941110504320692,-0.7313084832622235,-1.856161966745243,0.5281887697980672,0.32743484412744317,
-0.5047499882811322,0.8921967904948886,-0.7248541283138743,-1.8636090171785056,0.5294830679421537,0.33606014008212687,
-0.5047499882810678,0.8902416978529853,-0.7183740280814135,-1.8709925549020119,0.5308051911644541,0.34461842442202756,
-0.5047499882810037,0.8882464062067617,-0.7118683494198655,-1.8783130725399173,0.5321547201978145,0.35311031826248573,
-0.5047499882809403,0.8862115299059489,-0.7053372492013317,-1.8855710676531114,0.5335312483636641,0.36153644520529893,
-0.5047499882808772,0.8841376644318321,-0.6987808745130603,-1.8927670421904723,0.5349343812364906,0.36989743087114624,
-0.504749988280815,0.8820253868655524,-0.6921993628478244,-1.8999015019684895,0.5363637363189824,0.3781939024584727,
-0.5047499882807532,0.8798752563426768,-0.6855928422867364,-1.9069749561780318,0.5378189427276101,0.3864264883276414,
-0.5047499882806924,0.8776878144942515,-0.6789614316746144,-1.913987916917062,0.5392996408884279,0.39459581760920626,
-0.5047499882806326,0.875463585874564,-0.6723052407880318,-1.920940898748166,0.540805482242859,0.40270251983521504,
-0.5047499882805735,0.8732030783758364,-0.665624370496167,-1.9278344182797884,0.5423361289632387,0.4107472245924769,
-0.5047499882805159,0.8709067836300928,-0.6589189129145807,-1.9346689937701183,0.5438912536778858,0.41873056119679336,
-0.5047499882804589,0.8685751773984225,-0.6521889515520325,-1.9414451447526073,0.5454705392054637,0.4266531583871714,
-0.5047499882804032,0.8662087199479002,-0.6454345614504579,-1.9481633916821455,0.5470736782984167,0.4345156440390997,
-0.5047499882803483,0.8638078564163828,-0.6386558093182219,-1.9548242556009492,0.5487003733952384,0.4423186448959864,
-0.5047499882802947,0.8613730171654363,-0.63185275365675,-1.9614282578232696,0.5503503363813617,0.4500627863179147,
-0.5047499882802421,0.8589046181216397,-0.6250254448806581,-1.9679759196380546,0.5520232883584412,0.45774869204689894,
-0.5047499882801907,0.856403061106486,-0.6181739254314729,-1.974467762028734,0.5537189594218153,0.4653769839878588,
-0.5047499882801402,0.8538687341551336,-0.6112982298850449,-1.980904305409338,0.5554370884459308,0.4729482820045671,
-0.5047499882800909,0.851302011824248,-0.6043983850527586,-1.9872860693761945,0.5571774228775284,0.48046320372986884,
-0.5047499882800426,0.8487032554891385,-0.5974744100766144,-1.9936135724744637,0.5589397185363761,0.487922364389474,
-0.5047499882799955,0.8460728136304504,-0.5905263165182841,-1.999887331978836,0.5607237394233608,0.4953263766386975,
-0.5047499882799492,0.8434110221106094,-0.5835541084422113,-2.0061078636877068,0.5625292575357368,0.5026758504115102,
-0.5047499882799044,0.8407182044402552,-0.5765577824928385,-2.012275681730203,0.564356052689351,0.5099713927813205,
-0.5047499882798604,0.8379946720348641,-0.5695373279660294,-2.018391298385457,0.5662039123476537,0.5172136078329234,
-0.5047499882798172,0.835240724461774,-0.5624927268747544,-2.024455223913532,0.5680726314573257,0.5244030965450793,
-0.5047499882797754,0.8324566496778174,-0.5554239540091006,-2.0304679663974574,0.5699620122903482,0.5315404566832154,
-0.5047499882797343,0.8296427242577472,-0.5483309769906581,-2.0364300315958377,0.5718718642923457,0.5386262827017602,
-0.5047499882796943,0.8267992136136605,-0.5412137563213388,-2.0423419228055284,0.5738020039370522,0.5456611656556545,
-0.5047499882796553,0.8239263722055853,-0.5340722454266623,-2.048204140733893,0.5757522545867376,0.5526456931205962,
-0.504749988279617,0.8210244437434244,-0.5269063906935578,-2.0540171833801875,0.5777224463584538,0.5595804491216,
-0.504749988279617,0.8210244437434244,-0.5269063906935578,-2.0540171833801875,0.5777224463584538,0.5595804491216,
-0.49624475412385316,0.8256463800660268,-0.529325868688205,-2.065396595633944,0.5715728176727181,0.570189105800419,
-0.4876604597851312,0.830199277033678,-0.5316985460571382,-2.0770707360743987,0.5654178422670268,0.5810569547116706,
-0.4789972805633356,0.8346819424676951,-0.5340243002422133,-2.0890484117395633,0.5592601336606998,0.5921926644039901,
-0.4702554423501883,0.8390931836618224,-0.5363030104479767,-2.101338692306767,0.5531024562727475,0.6036051970362327,
-0.46143522324126185,0.8434318082858545,-0.5385345577183477,-2.113950908687643,0.5469477318864433,0.6153038079346655,
-0.45253695511715053,0.8476966253190202,-0.5407188250107536,-2.126894649744252,0.5407990462308957,0.627298043248481,
-0.4435610251900882,0.8518864460106577,-0.5428556972673053,-2.1401797568019245,0.534659655656503,0.6395977353755772,
-0.4345078775094866,0.8560000848675177,-0.5449450614829212,-2.153816315609801,0.5285329938737127,0.6522129958057873,
-0.4253780144196248,0.8600363606668902,-0.5469868067703216,-2.167814645361668,0.5224226787180327,0.6651542049902456,
-0.4161719979625023,0.8639940974946748,-0.5489808244218239,-2.182185284349374,0.5163325188968595,0.6784319988051715,
-0.4068904512186707,0.8678721258073441,-0.5509270079678695,-2.196938971779282,0.5102665206652901,0.6920572511364644,
-0.39753405957869387,0.8716692835166763,-0.5528252532322432,-2.2120866252396993,0.5042288943686235,0.7060410520689078,
-0.3881035719377514,0.8753844170959636,-0.5546754583839312,-2.2276393132648358,0.49822406077863257,0.7203946811213848,
-0.3785998017299649,0.8790163827337167,-0.556477523982325,-2.2436082227384233,0.49225665709514305,0.7351295752583257,
-0.3690236282313827,0.8825640473742912,-0.5582313530345787,-2.260004618555996,0.4863315427676444,0.7502572891418641,
-0.35937599707394885,0.8860262900288305,-0.5599368510198992,-2.2768397995628686,0.48045380441517865,0.765789451519119,
-0.3496579213124636,0.8894020028567673,-0.5615939259387938,-2.294125044058886,0.47462876050254577,0.7817377111827125,
-0.339870482059342,0.8926900923786395,-0.5632024883453526,-2.311871548522169,0.4688619650574682,0.7981136760439618,
-0.3300148290579837,0.8958894806771142,-0.5647624513788086,-2.3300903571598495,0.4631592104877637,0.8149288429646244,
-0.3200921811263982,0.8989991066068985,-0.5662737307917933,-2.3487922818697973,0.45752652928182075,0.832194517920675,
-0.31010382646403495,0.9020179270112298,-0.5677362449753675,-2.3679878119662505,0.4519701943924948,0.8499217258473816,
-0.30005112281505064,0.904944917942499,-0.5691499149808974,-2.3876870130917656,0.4464967180855871,0.8681211095846452,
-0.2899354974815972,0.9077790758844569,-0.5705146645388617,-2.407899414841605,0.4411128490157219,0.8868028174454717,
-0.27975844718111126,0.910519418973334,-0.5718304200746981,-2.42863388677055,0.4358255672754583,0.9059763790745803,
-0.2695215377420618,0.9131649882151105,-0.5730971107218008,-2.449898502642352,0.43064207714885694,0.9256505694546412,
-0.25922640363312427,0.9157148486960598,-0.5743146683317953,-2.47170039302425,0.42556979728951616,0.9458332611601735,
-0.24887474732134446,0.9181680907836376,-0.5754830274822391,-2.494045586628282,0.4206163480367205,0.9665312652587479,
-0.23846833845548362,0.9205238313146626,-0.5766021254818815,-2.5169388411608855,0.4157895355832202,0.9877501616192996,
-0.22800901287144315,0.9227812147677293,-0.5776719023736651,-2.540383464864169,0.41109733271602095,1.0094941198096004,
-0.21749867141740062,0.9249394144166857,-0.5786923009356164,-2.5643811304145254,0.40654785586912096,1.0317657122476758,
-0.20693927859709646,0.9269976334620205,-0.5796632666798236,-2.5889316833817118,0.4021493382562387,1.0545657218098152,
-0.19633286103053746,0.928955106136935,-0.5805847478496705,-2.61403294803385,0.3979100988939089,1.0778929466806282,
-0.1856815057322694,0.9308110987849103,-0.5814566954155267,-2.639680533885205,0.39383850738248205,1.1017440058424757,
-0.17498735820827596,0.9325649109055472,-0.5822790630690907,-2.6658676470019076,0.3899429443856432,1.1261131492203877,
-0.16425262037350052,0.9342158761655074,-0.5830518072165702,-2.6925849106771005,0.38623175783873254,1.1509920770954247,
-0.15347954829294336,0.9357633633714117,-0.5837748869709186,-2.719820200626145,0.38271321502222955,1.17636977393906,
-0.14267044965552894,0.9372067774127747,-0.5844482641413054,-2.7475585007581005,0.3793954507335397,1.2022323627095737,
-0.13182768153712127,0.9385455601059606,-0.5850719032318877,-2.7757817827096254,0.37628641209447244,1.2285629829025877,
-0.12095364712040436,0.9397791910987194,-0.5856457714208986,-2.804468921691785,0.3733938001736108,1.255341704660194,
-0.11005079311101007,0.9409071886193668,-0.5861698385584813,-2.833595646044046,0.37072500957552074,1.2825454766595323,
-0.09912160659508147,0.9419291102251006,-0.5866440771552807,-2.8631345321424684,0.36828706648415527,1.3101481191975828,
-0.08816861183795296,0.9428445534851289,-0.5870684623730333,-2.8930550470403738,0.3660865662649142,1.3381203649465583,
-0.07719436695385676,0.9436531566063421,-0.5874429720155075,-2.9233236430002685,0.36412961169344366,1.3664299515293135,
-0.06620146045700513,0.9443545989993439,-0.5877675865199555,-2.953903906378247,0.3624217529965326,1.3950417683818102,
-0.05519250770516048,0.944948601782814,-0.588042288949216,-2.984756761743654,0.3609679309517975,1.4239180587916396,
-0.044170147247508916,0.9454349282244018,-0.588267064984594,-3.0158407303251975,0.3597724243130936,1.4530186762103523,
-0.033137037089283096,0.9458133841165545,-0.5884419029196406,-3.0471122399497825,0.3588388028021566,1.482301392012772,
-0.022095850886133278,0.9460838180859126,-0.5885667936549216,-3.0785259816815427,0.3581698868306793,1.5117222499179395,
-0.011049274081718916,0.9462461218351442,-0.5886417306938643,-3.110035306488286,0.3577677149905821,1.5412359604063264,
-2.373327308359725e-12,0.9463002303163172,-0.5886667101397439,-3.141592653577724,0.35763352017657335,1.5707963267832967,
0.011049274077012174,0.9462461218351856,-0.5886417306938562,3.1100353065122155,0.357767714990483,1.6003566931604676,
0.022095850881544074,0.9460838180859948,-0.5885667936549063,3.0785259817048574,0.3581698868304863,1.6298704036494451,
0.0331370370848827,0.9458133841166725,-0.5884419029196184,3.0471122399721113,0.35883880280187946,1.65929126155556,
0.04417014724335872,0.9454349282245507,-0.5882670649845663,3.015840730346222,0.359772424312746,1.688573977359233,
0.055192507701309214,0.9449486017829867,-0.5880422889491838,2.9847567617631228,0.3609679309513954,1.7176745947794403,
0.06620146045348757,0.9443545989995332,-0.5877675865199203,2.9539039063959835,0.3624217529960936,1.7465508851909337,
0.07719436695069305,0.9436531566065408,-0.5874429720154708,2.9233236430161735,0.3641296116929846,1.7751627020451906,
0.08816861183514985,0.94284455348533,-0.5870684623729959,2.8930550470544194,0.3660865662644516,1.8034722886297323,
0.09912160659263353,0.9419291102252993,-0.5866440771552444,2.86313453215469,0.3682870664837036,1.8314445343804606,
0.11005079310890149,0.9409071886195564,-0.5861698385584462,2.833595646054532,0.37072500957509097,1.859047176920179,
0.1209536471186119,0.9397791910988973,-0.5856457714208662,2.8044689217006606,0.3733938001732112,1.8862509489210646,
0.13182768153561641,0.9385455601061236,-0.5850719032318579,2.7757817827170435,0.376286412094109,1.9130296706800716,
0.14267044965428047,0.9372067774129216,-0.5844482641412789,2.7475585007642263,0.37939545073321534,1.939360290874328,
0.15347954821229975,0.9357633633816637,-0.5837748869690845,2.7198202010198806,0.3827132149998545,1.96522287927195,
0.16425262023781217,0.9342158761840316,-0.5830518072132778,2.692584911336292,0.3862317577987226,1.990600575860089,
0.17498735809616547,0.9325649109219133,-0.5822790630662026,2.665867647543795,0.3899429443506797,2.015479503847882,
0.1856815056403679,0.930811098799202,-0.5814566954130239,2.6396805343271366,0.39383850735229653,2.039848647321889,
0.19633286095574692,0.928955106149284,-0.5805847478475255,2.614032948391647,0.3979100988681331,2.063699706564633,
0.2069392785366334,0.92699763347259,-0.5796632666780043,2.58893168366948,0.40214933823444693,2.087026931502793,
0.21749867136881385,0.9249394144256545,-0.5786923009340875,2.56438113064459,0.4065478558508625,2.1098269411204376,
0.2280090128326109,0.9227812147752812,-0.5776719023723915,2.5403834650471184,0.41109733270084625,2.132098533603844,
0.2384683384245975,0.9205238313209776,-0.576602125480829,2.5169388413056795,0.4157895355706996,2.1538424918308654,
0.24887474729688333,0.9181680907888854,-0.5754830274813747,2.4940455867424025,0.4206163480264568,2.175061388220946,
0.25922640361382415,0.9157148487003983,-0.574314668331091,2.471700393113871,0.42556979728115035,2.195759392343114,
0.2695215377268827,0.9131649882186791,-0.5730971107212294,2.4498985027125175,0.4306420771420725,2.2159420840673887,
0.27975844716920595,0.9105194189762584,-0.5718304200742377,2.428633886825344,0.4358255672699802,2.2356162744622647,
0.2899354974722809,0.907779075886844,-0.5705146645384921,2.407899414884305,0.44111284901131526,2.2547898361030336,
0.30005112280777374,0.9049449179444414,-0.5691499149806011,2.3876870131249883,0.44649671808205427,2.273471543973003,
0.31010382645835866,0.9020179270128074,-0.5677362449751322,2.367987811992067,0.45197019438966907,2.2916709277174148,
0.32009218112197557,0.8989991066081771,-0.5662737307916066,2.348792281889843,0.45752652927956644,2.3093981356496944,
0.3300148290545401,0.895889480678149,-0.5647624513786614,2.3300903571754072,0.46315921048596803,2.3266638106100817,
0.33987048205666165,0.8926900923794763,-0.5632024883452368,2.3118715485342434,0.4688619650560399,2.3434789775341125,
0.3496579213103771,0.8894020028574428,-0.5615939259387024,2.2941250440682595,0.4746287605014108,2.3598549423979756,
0.35937599707232454,0.8860262900293763,-0.5599368510198282,2.276839799570148,0.48045380441427715,2.375803202063596,
0.3690236282301172,0.882564047374732,-0.5582313530345234,2.260004618561654,0.48633154276692814,2.3913353644424227,
0.3785998017289784,0.8790163827340722,-0.5564775239822811,2.243608222742826,0.4922566570945745,2.406463078327178,
0.3881035718759107,0.8753844171191317,-0.5546754583812897,2.2276393135404025,0.49822406074235537,2.4211979721996366,
0.3975340594780417,0.8716692835557596,-0.5528252532280314,2.2120866256876126,0.5042288943085509,2.435551601083529,
0.4068904511374967,0.8678721258400018,-0.5509270079645616,2.196938972140141,0.5102665206160285,2.4495354021005658,
0.4161719978969571,0.8639940975219973,-0.5489808244192482,2.1821852846405356,0.5163325188564346,2.4631606544996485,
0.4253780143666272,0.8600363606897837,-0.5469868067683388,2.167814645596982,0.5224226786848299,2.4764384483689463,
0.43450787746657105,0.8560000848867335,-0.5449450614814169,2.153816315800318,0.5285329938464133,2.489379657597062,
0.44356102515528106,0.8518864460268193,-0.5428556972661872,2.140179756956465,0.5346596556340304,2.5019949180623704,
0.4525369550888712,0.8476966253326427,-0.5407188250099468,2.12689464986986,0.5407990462123715,2.5142946102177226,
0.4614352232182449,0.8434318082973653,-0.5385345577177911,2.113950908789949,0.5469477318711515,2.5262888455543213,
0.47025544233141897,0.8390931836715758,-0.5363030104476216,2.1013386923902764,0.553102456260104,2.537987456471154,
0.4789972805480001,0.8346819424759837,-0.5340243002420197,2.0890484118078825,0.5592601336502283,2.549399989118283,
0.48766045977257577,0.8301992770407447,-0.5316985460570745,2.0770707361304206,0.5654178422583387,2.5605356988226684,
0.49624475411355246,0.8256463800720737,-0.5293258686882455,2.0653965956799922,0.571572817665496,2.571403547743719,
0.504749988273709,0.8210244437467209,-0.5269063906933628,2.054017183406599,0.5777224463542557,2.5820122044419795,
0.504749988273709,0.8210244437467209,-0.5269063906933628,2.054017183406599,0.5777224463542557,2.5820122044419795,
0.504749988276323,0.8239263722070538,-0.5340722454261779,2.0482041407488993,0.5757522545843639,2.588946960454304,
0.5047499882762838,0.8267992136152662,-0.5412137563208917,2.0423419228210933,0.5738020039346197,2.5959314879186666,
0.5047499882762441,0.829642724259499,-0.5483309769902502,2.0364300316119883,0.5718718642898539,2.6029663708719526,
0.5047499882762033,0.8324566496797237,-0.5554239540087338,2.0304679664142227,0.569962012287796,2.6100521968898587,
0.5047499882761617,0.835240724463845,-0.5624927268744319,2.024455223930942,0.5680726314547124,2.617189557027324,
0.504749988276119,0.8379946720371094,-0.5695373279657536,2.018391298403544,0.5662039123449777,2.6243790457387752,
0.5047499882760753,0.8407182044426862,-0.5765577824926131,2.012275681749001,0.5643560526866117,2.6316212607896374,
0.5047499882760305,0.8434110221132378,-0.5835541084420394,2.0061078637072516,0.5625292575329331,2.6389168031586676,
0.5047499882759846,0.8460728136332888,-0.5905263165181688,1.999887331999167,0.5607237394204915,2.6462662769306595,
0.5047499882759379,0.8487032554922022,-0.5974744100765605,1.9936135724956217,0.5589397185334405,2.6536702891790185,
0.50474998827589,0.8513020118275506,-0.60439838505277,1.9872860693982228,0.5571774228745255,2.6611294498377127,
0.5047499882758409,0.8538687341586915,-0.6112982298851265,1.9809043054322841,0.5554370884428597,2.668644371562053,
0.504749988275791,0.8564030611103159,-0.6181739254316294,1.974467762052647,0.5537189594186751,2.676215669577748,
0.5047499882757399,0.8589046181257612,-0.6250254448808957,1.9679759196629871,0.5520232883552313,2.6838439615176375,
0.5047499882756877,0.8613730171698691,-0.6318527536570743,1.9614282578492783,0.5503503363780808,2.6915298672454915,
0.5047499882756344,0.8638078564211473,-0.6386558093186395,1.9548242556280941,0.5487003733918859,2.699274008666225,
0.5047499882755802,0.8662087199530215,-0.6454345614509766,1.9481633917104915,0.5470736782949919,2.7070770095218477,
0.5047499882755246,0.8685751774039253,-0.6521889515526593,1.9414451447822234,0.545470539201966,2.7149394951724384,
0.5047499882754684,0.8709067836360038,-0.6589189129153248,1.9346689938010775,0.5438912536743143,2.7228620923614004,
0.504749988275411,0.8732030783821856,-0.6656243704970369,1.9278344183121698,0.5423361289595934,2.7308454289642166,
0.5047499882753527,0.8754635858813822,-0.6723052407890378,1.920940898782054,0.5408054822391387,2.738890133719888,
0.5047499882752933,0.8776878145015734,-0.6789614316757675,1.9139879169525467,0.5392996408846327,2.7469968359442096,
0.504749988275233,0.8798752563505392,-0.6855928422880478,1.9069749562152098,0.5378189427237392,2.755166165223984,
0.5047499882751719,0.8820253868739947,-0.692199362849307,1.8999015020074648,0.5363637363150358,2.7633987510912505,
0.5047499882751103,0.8841376644408986,-0.6987808745147283,1.892767042231356,0.5349343812324684,2.7716952226765557,
0.5047499882750479,0.8862115299156859,-0.7053372492032002,1.885571067696023,0.533531248359566,2.7800562083402536,
0.5047499882749851,0.8882464062172205,-0.7118683494219512,1.878313072584984,0.5321547201936412,2.7884823352807806,
0.5047499882749217,0.8902416978642197,-0.7183740280837339,1.8709925549493711,0.5308051911602053,2.7969742291188058,
0.5047499882748583,0.8921967905069575,-0.7248541283164485,1.8636090172283044,0.52948306793783,2.805532513456115,
0.5047499882747948,0.8941110504450378,-0.731308483265073,1.85616196679764,0.5281887697936695,2.814157809408037,
0.5047499882747314,0.8959838241310354,-0.737736915885776,1.8486509165483633,0.5269227289298694,2.822850735108177,
0.5047499882746684,0.8978144376598564,-0.7441392387320995,1.8410753854959532,0.5256853908410671,2.8316119051841726,
0.504749988274606,0.8996021962436261,-0.7505152537330853,1.8334348994220802,0.5244772146831892,2.8404419302031463,
0.5047499882745446,0.9013463836719973,-0.756864751963233,1.825728991550051,0.5232986736537337,2.8493414160854695,
0.504749988274485,0.9030462617577352,-0.7631875134041792,1.8179572032554543,0.5221502553837201,2.858310963485423,
0.5047499882744267,0.9047010697675144,-0.7694833066979925,1.810119084813512,0.5210324623414659,2.8673511671372625,
0.504749988274371,0.9063100238378563,-0.7757518888919899,1.802214196184676,0.5199458122483418,2.8764626151651886,
0.5047499882743178,0.9078723163761729,-0.7819930051749776,1.7942421078400537,0.5188908385066217,2.885645888355637,
0.5047499882742683,0.9093871154469529,-0.7882063886048476,1.786202401628293,0.5178680906395353,2.8949015593902843,
0.5047499882742227,0.9108535641431239,-0.794391759827452,1.7780946716855894,0.5168781347435929,2.904230192038109,
0.5047499882741816,0.9122707799427031,-0.8005488267867086,1.7699185253905085,0.5159215539532261,2.9136323403048143,
0.5047499882741465,0.913637854050895,-0.8066772844258963,1.7616735843653613,0.5149989489177474,2.923108547537864,
0.5047499882741177,0.9149538507278454,-0.8127768143801155,1.753359485525887,0.514110938290596,2.9326593454853684,
0.5047499882740967,0.9162178066023369,-0.8188470846599182,1.7449758821810286,0.5132581592307905,2.9422852533070074,
0.5047499882740841,0.9174287299717814,-0.824887749326126,1.736522445184597,0.5124412679164547,2.9519867765351546,
0.5047499882740812,0.9185856000889432,-0.8308984481558831,1.7279988641406414,0.5116609400702316,2.9617644059843506,
0.5047499882740901,0.9196873664359116,-0.836878806300018,1.7194048486643365,0.5109178714963307,2.971618616607242,
0.5047499882741114,0.9207329479859503,-0.8428284339318217,1.7107401297002047,0.5102127786288893,2.9815498662951128,
0.5047499882741475,0.9217212324539426,-0.8487469258873855,1.7020044608994653,0.5095463990912442,2.991558594621113,
0.5047499882741998,0.9226510755362829,-0.8546338612976756,1.69319762005829,0.508919492265631,3.0016452215243135,
0.5047499882742702,0.923521300141183,-0.8604888032125722,1.6843194106187076,0.5083328398727233,3.011810145932721,
0.5047499882743609,0.9243306956104956,-0.8663112982171393,1.6753696632338322,0.5077872465603296,3.0220537443234337,
0.5047499882744743,0.9250780169343321,-0.8721008760404549,1.6663482373990597,0.5072835405004438,3.0323763692181385,
0.5047499882746125,0.925761983959882,-0.8778570491573756,1.6572550231507492,0.5068225739937169,3.042778347612242,
0.5047499882747788,0.9263812805960543,-0.883579312383685,1.648089942833857,0.5064052240802928,3.0532599793359627,
0.5047499882749754,0.9269345540157273,-0.8892671424651315,1.6388529529398215,0.5060323931557796,3.063821535345844,
0.5047499882752059,0.9274204138576226,-0.8949199976609495,1.6295440460158903,0.5057050095909893,3.0744632559452327,
0.5047499882754731,0.9278374314300221,-0.9005373173225222,1.6201632526468819,0.5054240283538761,3.085185348932431,
0.5047499882757804,0.9281841389188221,-0.9061185214679497,1.6107106435102114,0.5051904316319323,3.09598798767536,
0.5047499882761318,0.928459028602643,-0.9116630103533703,1.6011863315047437,0.5050052294530789,3.106871309111798,
0.5047499882765306,0.9286605520780198,-0.9171701640419838,1.591590473953817,0.5048694603028685,3.1178354116744376,
0.5047499882769809,0.9287871194979869,-0.922639341971851,1.5819232748824559,0.5047841917355785,3.128880353140302,
0.5047499882774867,0.9288370988276963,-0.9280698825236431,1.5721849873684843,0.5047505209765087,3.140006148404289,
0.5047499882780525,0.9288088151210425,-0.9334611025896614,1.5623759159668646,0.5047695755125203,-3.1319725400025993,
0.5047499882786819,0.9287005498226399,-0.9388122971455685,1.5524964192061692,0.5048425136675609,-3.12068517557234,
0.5047499882793802,0.9285105400998764,-0.9441227388264345,1.5425469121556483,0.5049705251595971,-3.109317193349204,
0.5047499882801505,0.9282369782101748,-0.9493916775088393,1.5325278690608264,0.5051548316350394,-3.0978687737362143,
0.5047499882809979,0.9278780109090323,-0.9546183399009573,1.5224398260450105,0.5053966871764008,-3.086340152270712,
0.5047499882780151,0.927431738790102,-0.9598019291034707,1.51228338361226,0.5056973787825323,-3.074731622008584,
0.5047499882780226,0.9268962162440219,-0.9649416243759974,1.5020592104994543,0.5060582267926997,-3.06304353735989,
0.5047499882780306,0.926269450362593,-0.970036580537852,1.4917680450325117,0.5064805853075633,-3.051276315248649,
0.5047499882780397,0.9255494010100884,-0.9750859277611164,1.4814106990512714,0.5069658425240428,-3.0394304390358546,
0.5047499882780493,0.9247339804282151,-0.9800887711994262,1.4709880606313934,0.5075154210349285,-3.0275064611581795,
0.5047499882780602,0.9238210530324186,-0.9850441906766506,1.4605010970876504,0.5081307780637824,-3.0155050060775754,
0.5047499882780716,0.9228084353017071,-0.9899512404023992,1.44995085800418,0.5088134056315571,-3.003426773270568,
0.5047499882780841,0.9216938957717228,-0.9948089487179393,1.4393384782824645,0.5095648306471522,-2.9912725402494087,
0.5047499882780974,0.9204751551413586,-0.9996163178763325,1.428665181196682,0.510386614913601,-2.9790431656062,
0.5047499882781117,0.9191498865038127,-1.0043723238608686,1.4179322814448903,0.5112803550410859,-2.966739592070038,
0.5047499882781269,0.917715715713547,-1.0090759162460963,1.407141188183303,0.5122476822574656,-2.954362849566075,
0.5047499882781433,0.9161702219011988,-1.0137260181060248,1.3962934080296134,0.5132902621064931,-2.9419140582642176,
0.5047499882781605,0.914510938149043,-1.01832152597431,1.3853905480200117,0.5144097940234021,-2.9293944316039253,
0.5047499882781786,0.9127353523401539,-1.0228613098614725,1.3744343185031573,0.5156080107770706,-2.916805279280305,
0.5047499882781977,0.9108409081948897,-1.0273442133344495,1.3634265359529805,0.5168866777675024,-2.9041480101753656,
0.5047499882782174,0.9088250065088208,-1.0317690536639925,1.352369125680779,0.5182475921669505,-2.8914241352169747,
0.504749988278238,0.9066850066065866,-1.0361346220456455,1.3412641244256152,0.5196925818926313,-2.8786352701466758,
0.5047499882782592,0.9044182280265375,-1.0404396839002101,1.3301136828006566,0.5212235043986355,-2.865783138176206,
0.504749988278281,0.9020219524512534,-1.0446829792597947,1.318920067571644,0.5228422452743957,-2.852869572511161,
0.5047499882783033,0.8994934258992092,-1.0488632232456587,1.3076856637424028,0.5245507166368693,-2.8398965187190144,
0.5047499882783258,0.896829861192898,-1.0529791066441776,1.2964129764209535,0.5263508553035088,-2.826866036917374,
0.5047499882783487,0.8940284407186406,-1.0570292965873018,1.2851046324386448,0.5282446207330969,-2.813780303757215,
0.5047499882783717,0.8910863194931062,-1.0610124373439012,1.2737633816936285,0.5302339927216543,-2.8006416141747303,
0.5047499882783947,0.8880006285511607,-1.064927151228338,1.2623920981890895,0.53232096884089,-2.78745238288449,
0.5047499882784172,0.8847684786690824,-1.0687720396324938,1.2509937807358582,0.5345075616070916,-2.774215145585751,
0.5047499882784392,0.8813869644364417,-1.072545684187311,1.2395715532885367,0.5367957953689304,-2.760932559853189,
0.504749988278461,0.8778531686888764,-1.076246648059637,1.228128664883908,0.5391877029034436,-2.747607405682834,
0.5047499882784819,0.8741641673128407,-1.0798734773898282,1.2166684891504385,0.5416853217104142,-2.73424258566388,
0.5047499882785018,0.8703170344317924,-1.0834247028751196,1.2051945233578998,0.544290689996592,-2.7208411247470825,
0.5047499882785205,0.8663088479816208,-1.0868988415032543,1.1937103869768333,0.5470058423426021,-2.707406169580906,
0.5047499882785378,0.8621366956809374,-1.0902943984401898,1.182219819718535,0.5498328050470792,-2.693940987387303,
0.5047499882785538,0.8577976813995484,-1.0936098690749814,1.1707266790277018,0.5527735911444919,-2.6804489643501292,
0.5047499882785538,0.8577976813995484,-1.0936098690749814,1.1707266790277018,0.5527735911444919,-2.6804489643501292,
0.5047499882774369,0.8621366956722492,-1.090294398436858,1.182219819704728,0.5498328050483503,-2.6939409873722324,
0.5047499882774541,0.8663088479731517,-1.0868988415000174,1.193710386963178,0.5470058423437878,-2.7074061695660117,
0.5047499882774726,0.8703170344235572,-1.083424702871983,1.2051945233444326,0.5442906899976938,-2.720841124732404,
0.5047499882774924,0.8741641673048537,-1.0798734773867957,1.2166684891371942,0.5416853217114345,-2.7342425856494548,
0.504749988277513,0.8778531686811505,-1.0762466480567137,1.2281286648709193,0.5391877029043847,-2.7476074056686963,
0.5047499882775345,0.881386964428984,-1.072545684184499,1.2395715532758316,0.5367957953697955,-2.7609325598393686,
0.5047499882775565,0.8847684786619033,-1.0687720396297955,1.2509937807234643,0.5345075616078834,-2.774215145572277,
0.504749988277579,0.8880006285442634,-1.064927151225755,1.262392098177028,0.532320968841613,-2.7874523828713857,
0.5047499882776019,0.8910863194864972,-1.061012437341434,1.2737633816819227,0.5302339927223119,-2.80064161416202,
0.5047499882776251,0.8940284407123217,-1.0570292965849513,1.285104632427311,0.528244620733693,-2.813780303744915,
0.5047499882776477,0.89682986118687,-1.0529791066419432,1.2964129764100067,0.5263508553040469,-2.8268660369055008,
0.5047499882776704,0.8994934258934699,-1.0488632232435386,1.3076856637318535,0.524550716637354,-2.8398965187075778,
0.5047499882776926,0.9020219524457997,-1.0446829792577876,1.3189200675614998,0.522842245274831,-2.8528695725001696,
0.5047499882777143,0.9044182280213676,-1.040439683898314,1.3301136827909248,0.521223504399025,-2.865783138165667,
0.5047499882777358,0.9066850066016947,-1.0361346220438579,1.341264124416299,0.5196925818929792,-2.8786352701365914,
0.5047499882777565,0.9088250065042003,-1.0317690536623105,1.3523691256718773,0.5182475921672606,-2.8914241352073438,
0.5047499882777761,0.9108409081905345,-1.0273442133328694,1.3634265359444928,0.5168866777677776,-2.904148010166187,
0.504749988277795,0.9127353523360546,-1.022861309859991,1.3744343184950782,0.515608010777315,-2.916805279271573,
0.5047499882778135,0.9145109381451925,-1.018321525972924,1.3853905480123372,0.5144097940236185,-2.929394431595634,
0.5047499882778306,0.9161702218975872,-1.0137260181047294,1.3962934080223346,0.5132902621066846,-2.9419140582563577,
0.504749988277847,0.917715715710166,-1.0090759162448881,1.407141188176411,0.5122476822576352,-2.9543628495586365,
0.5047499882778624,0.9191498865006508,-1.0043723238597437,1.417932281438375,0.5112803550412359,-2.9667395920630093,
0.5047499882778766,0.920475155138406,-0.9996163178752858,1.4286651811905313,0.5103866149137337,-2.9790431655995677,
0.5047499882778903,0.9216938957689704,-0.9948089487169672,1.4393384782766674,0.5095648306472699,-2.991272540243161,
0.504749988277903,0.9228084352991441,-0.9899512404014982,1.4499508579987224,0.5088134056316617,-3.003426773264689,
0.5047499882779146,0.923821053030035,-0.9850441906758158,1.4605010970825194,0.5081307780638759,-3.01550500607205,
0.5047499882779253,0.9247339804260002,-0.9800887711986539,1.4709880606265744,0.5075154210350125,-3.027506461152993,
0.5047499882779348,0.9255494010080327,-0.9750859277604027,1.48141069904675,0.5069658425241179,-3.039430439030991,
0.5047499882779438,0.9262694503606881,-0.9700365805371937,1.491768045028275,0.5064805853076315,-3.051276315244094,
0.5047499882779521,0.9268962162422573,-0.9649416243753903,1.5020592104954877,0.5060582267927618,-3.063043537355627,
0.5047499882779597,0.9274317387884693,-0.9598019291029116,1.5122833836085492,0.5056973787825894,-3.0747316220045984,
0.5047499882749491,0.9278780106926958,-0.9546183398273361,1.522439825547029,0.5053966871839571,-3.086340151736187,
0.5047499882758036,0.9282369780086513,-0.9493916774405972,1.532527868591735,0.5051548316421511,-3.097868773232979,
0.5047499882765809,0.9285105399122707,-0.9441227387632268,1.5425469117140154,0.5049705251663444,-3.1093171928756957,
0.504749988277285,0.9287005496480935,-0.9388122970870661,1.5524964187905945,0.5048425136740132,-3.120685175127031,
0.5047499882779203,0.9288088149587316,-0.9334611025355506,1.5623759155759784,0.5047695755187352,-3.131972539583996,
0.5047499882784907,0.9288370986768351,-0.9280698824736255,1.5721849870009568,0.5047505209825351,3.1400061487976356,
0.5047499882790012,0.9287871193578294,-0.9226393419256447,1.5819232745369993,0.5047841917414576,3.1288803535097935,
0.5047499882794553,0.9286605519478568,-0.9171701639993225,1.59159047362919,0.5048694603086331,3.117835412021425,
0.5047499882798576,0.9284590284818031,-0.9116630103140024,1.601186331199751,0.5050052294587568,3.1068713094375813,
0.5047499882802121,0.9281841388066706,-0.9061185214316397,1.610710643223707,0.5051904316375453,3.095987987981185,
0.5047499882805218,0.9278374313259606,-0.9005373172890476,1.620163252377771,0.5054240283594406,3.0851853492194867,
0.5047499882807912,0.9274204137610886,-0.8949199976301031,1.6295440457631274,0.5057050095965183,3.074463256214654,
0.5047499882810236,0.9269345539261931,-0.8892671424367189,1.6388529527024132,0.506032393161283,3.0638215355987106,
0.5047499882812215,0.9263812805130219,-0.8835793123575237,1.648089942610857,0.5064052240857762,3.053259979573301,
0.504749988281389,0.9257619838828876,-0.8778570491332969,1.6572550229412628,0.5068225739991851,3.042778347835022,
0.5047499882815282,0.9250780168629413,-0.8721008760183006,1.6663482372022398,0.5072835405058982,3.0323763694272783,
0.5047499882816423,0.9243306955443025,-0.8663112981967628,1.6753696630488788,0.507787246565771,3.022053744519801,
0.5047499882817331,0.9235213000798091,-0.8604888031938372,1.6843194104448656,0.50833283987815,3.011810146117134,
0.5047499882818038,0.9226510754793766,-0.854633861280456,1.69319761989485,0.508919492271042,3.0016452216975402,
0.5047499882818559,0.9217212324011751,-0.8487469258715639,1.7020044607457574,0.5095463990966366,2.991558594783878,
0.5047499882818919,0.9207329479370183,-0.84282843391729,1.7107401295556035,0.51021277863426,2.9815498664480935,
0.5047499882819131,0.9196873663905314,-0.8368788062866755,1.7194048485282514,0.5109178715016759,2.9716186167510767,
0.5047499882819213,0.9185856000468506,-0.8308984481436367,1.7279988640125195,0.5116609400755471,2.9617644061196375,
0.5047499882819183,0.9174287299327333,-0.8248877493148897,1.7365224450639218,0.5124412679217367,2.9519867766624523,
0.5047499882819055,0.9162178065661077,-0.8188470846496133,1.7449758820673165,0.5132581592360352,2.942285253426838,
0.5047499882818836,0.9149538506942253,-0.8127768143706686,1.7533594854186851,0.5141109382957995,2.9326593455982217,
0.504749988281854,0.9136378540196906,-0.8066772844172403,1.7616735842642466,0.5149989489229054,2.9231085476441963,
0.5047499882818182,0.9122707799137343,-0.8005488267787811,1.769918525295086,0.5159215539583355,2.9136323404050524,
0.5047499882817764,0.9108535641162254,-0.7943917598201952,1.7780946715954913,0.5168781347486499,2.9042301921326494,
0.50474998828173,0.9093871154219718,-0.7882063885982099,1.7862024015431748,0.5178680906445365,2.8949015594794982,
0.5047499882816795,0.9078723163529672,-0.7819930051689098,1.7942421077595958,0.5188908385115647,2.88564588843987,
0.5047499882816254,0.906310023816295,-0.7757518888864474,1.8022141961085785,0.5199458122532234,2.8764626152447637,
0.5047499882815689,0.9047010697474767,-0.7694833066929342,1.8101190847414963,0.5210324623462839,2.8673511672124796,
0.50474998828151,0.903046261739108,-0.7631875133995675,1.81795720318726,0.5221502553884718,2.858310963556562,
0.5047499882814492,0.9013463836546788,-0.7568647519590327,1.825728991485437,0.5232986736584179,2.849341416152791,
0.5047499882813873,0.899602196227521,-0.750515253729265,1.8334348993608214,0.5244772146878037,2.8404419302668917,
0.5047499882813241,0.8978144376448756,-0.7441392387286287,1.8410753854378394,0.5256853908456105,2.8316119052445687,
0.5047499882812603,0.8959838241170981,-0.7377369158826282,1.8486509164931981,0.52692272893434,2.8228507351654346,
0.5047499882811963,0.8941110504320693,-0.7313084832622236,1.856161966745243,0.5281887697980672,2.8141578094623503,
0.5047499882811318,0.8921967904948882,-0.7248541283138742,1.8636090171785051,0.5294830679421532,2.805532513507667,
0.5047499882810677,0.8902416978529851,-0.7183740280814137,1.8709925549020119,0.5308051911644539,2.7969742291677657,
0.5047499882810036,0.8882464062067617,-0.7118683494198654,1.878313072539917,0.5321547201978141,2.788482335327308,
0.5047499882809402,0.8862115299059483,-0.7053372492013316,1.8855710676531114,0.5335312483636638,2.7800562083844946,
0.504749988280877,0.8841376644318308,-0.6987808745130598,1.8927670421904719,0.5349343812364903,2.7716952227186478,
0.5047499882808146,0.8820253868655517,-0.692199362847824,1.8999015019684895,0.5363637363189819,2.7633987511313207,
0.5047499882807532,0.879875256342676,-0.685592842286736,1.9069749561780316,0.53781894272761,2.7551661652621524,
0.5047499882806925,0.8776878144942515,-0.6789614316746144,1.913987916917062,0.539299640888428,2.7469968359805867,
0.5047499882806327,0.875463585874564,-0.6723052407880316,1.9209408987481662,0.540805482242859,2.738890133754578,
0.5047499882805737,0.8732030783758367,-0.6656243704961671,1.9278344182797886,0.5423361289632388,2.7308454289973163,
0.5047499882805159,0.8709067836300926,-0.6589189129145807,1.9346689937701183,0.5438912536778857,2.722862092393,
0.5047499882804588,0.8685751773984226,-0.6521889515520326,1.9414451447526075,0.5454705392054636,2.714939495202622,
0.504749988280403,0.8662087199478998,-0.6454345614504579,1.9481633916821455,0.5470736782984165,2.7070770095506935,
0.5047499882803483,0.8638078564163826,-0.638655809318222,1.954824255600949,0.5487003733952384,2.699274008693807,
0.5047499882802947,0.8613730171654366,-0.63185275365675,1.9614282578232698,0.5503503363813618,2.6915298672718784,
0.5047499882802421,0.8589046181216399,-0.6250254448806583,1.9679759196380548,0.5520232883584413,2.683843961542894,
0.5047499882801906,0.8564030611064855,-0.6181739254314726,1.974467762028734,0.5537189594218151,2.6762156696019344,
0.5047499882801403,0.8538687341551339,-0.6112982298850452,1.9809043054093383,0.5554370884459306,2.668644371585226,
0.5047499882800908,0.8513020118242478,-0.6043983850527586,1.9872860693761942,0.5571774228775283,2.6611294498599247,
0.5047499882800427,0.8487032554891386,-0.5974744100766142,1.9936135724744637,0.5589397185363763,2.653670289200319,
0.5047499882799957,0.8460728136304504,-0.5905263165182841,1.9998873319788362,0.560723739423361,2.6462662769510956,
0.5047499882799494,0.8434110221106091,-0.5835541084422112,2.0061078636877063,0.5625292575357369,2.6389168031782835,
0.5047499882799045,0.8407182044402554,-0.5765577824928385,2.0122756817302037,0.5643560526893511,2.6316212608084726,
0.5047499882798605,0.8379946720348639,-0.5695373279660292,2.018391298385457,0.5662039123476538,2.62437904575687,
0.5047499882798174,0.835240724461774,-0.5624927268747543,2.024455223913532,0.5680726314573258,2.617189557044714,
0.5047499882797755,0.8324566496778175,-0.5554239540091005,2.0304679663974574,0.5699620122903482,2.6100521969065777,
0.5047499882797343,0.8296427242577474,-0.5483309769906584,2.036430031595838,0.5718718642923456,2.602966370888033,
0.5047499882796944,0.8267992136136606,-0.5412137563213391,2.0423419228055284,0.573802003937052,2.5959314879341386,
0.5047499882796554,0.8239263722055855,-0.5340722454266624,2.048204140733893,0.5757522545867375,2.588946960469197,
0.5047499882796171,0.8210244437434245,-0.5269063906935577,2.0540171833801875,0.5777224463584538,2.5820122044681932,
0.5047499882796171,0.8210244437434245,-0.5269063906935577,2.0540171833801875,0.5777224463584538,2.5820122044681932,
0.5001121252804877,0.8125919482014592,-0.5224640322555021,2.0530799567881095,0.5719363262603577,2.5847202959310973,
0.4955516734851177,0.8041499203299287,-0.5179801605009686,2.0520596964785196,0.5662275671006006,2.5874698750491225,
0.49106689583921664,0.7956991283424745,-0.5134549732166094,2.050958425340417,0.5605953413078747,2.5902598852346803,
0.4866561002810596,0.7872403141946193,-0.5088886647807798,2.0497781671752366,0.5550388334949113,2.593089243906755,
0.48231763859674864,0.7787741940768619,-0.5042814260345275,2.04852094745599,0.5495572397501923,2.5959568424002435,
0.47804990529402436,0.7703014589000017,-0.49963344415675626,2.047188794068972,0.5441497669620092,2.598861545878138,
0.4738513364936928,0.7618227747739812,-0.4949449025434181,2.045783738045189,0.5388156321731405,2.6018021932393,
0.4697204088397568,0.7533387834801795,-0.49021598069056943,2.0443078142788638,0.5335540619659082,2.604777597024333,
0.46565563842915725,0.7448501029371131,-0.4854468540811223,2.0427630622305735,0.5283642918773187,2.60778654332196,
0.4616555797618684,0.7363573276594904,-0.4806376940751367,2.0411515266126967,0.5232455658439195,2.6108277916782234,
0.4577188247119402,0.7278610292105665,-0.4757886678034748,2.0394752580550417,0.5181971356759584,2.613900075010679,
0.45384400151995397,0.7193617566477526,-0.47089993806466035,2.037736313748652,0.5132182605604,2.6170020995296785,
0.4500297738072369,0.7108600369614392,-0.4659716632247754,2.0359367580659495,0.508308206592304,2.620132544668707,
0.4462748396120729,0.7023563755069706,-0.4610039971202196,2.0340786631555026,0.5034662463340542,2.6232900630256313,
0.4425779304480625,0.6938512564297481,-0.45599708896317753,2.0321641095098673,0.4986916584019083,2.62647328031661,
0.43893781038468854,0.6853451430833986,-0.450951083249617,2.0301951865050567,0.4939837270793077,2.6296807953443007,
0.4353532751500856,0.6768384784409791,-0.4458661196696532,2.0281739929103573,0.48934174195639724,2.632911179981864,
0.43182315125593346,0.6683316854991744,-0.4407423330201231,2.0261026373673094,0.48476499759517466,2.6361629791742085,
0.4283462951443435,0.6598251676754453,-0.43557985311918707,2.023983238836842,0.4802527932197013,2.639434710957712,
0.42492159235656213,0.651319309198091,-0.4303788047228067,2.021817927013631,0.47580443243079845,2.6427248664996377,
0.42154795672325757,0.6428144754891906,-0.4251393074429274,2.0196088427069117,0.4714192229446502,2.646031910158263,
0.41822432957613676,0.6343110135403889,-0.4198614756672031,2.0173581381870918,0.4670964763547473,2.6493542795646725,
0.41494967898059243,0.6258092522814894,-0.4145454184800969,2.015067977497638,0.4628355079166001,2.6526903857270154,
0.4117229989890587,0.6173095029418318,-0.40919123958520226,2.0127405367318163,0.45863563635465926,2.656038613157933,
0.4085433089147312,0.6088120594044086,-0.4037990372286067,2.0103780042740276,0.4544961836908941,2.6593973200257066,
0.40540965262528694,0.6003171985527068,-0.398368904123153,2.0079825810055545,0.4504164750944762,2.6627648383295948,
0.40232109785622056,0.5918251806102434,-0.3929009273734243,2.0055564804747004,0.44639583875203404,2.666139474099671,
0.3992767355434046,0.5833362494727616,-0.3873951884012952,2.0031019290313865,0.4424336057579466,2.6695195076213807,
0.3962756791744692,0.5748506330330744,-0.3818517628718856,2.0006211659264173,0.43852911002415645,2.67290319368489,
0.39331706415859,0.5663685434985215,-0.3762707206197537,1.9981164433757326,0.43468168820899405,2.676288761859193,
0.39040004721426463,0.557890177701033,-0.37065212557517685,1.9955900265900617,0.4308906796645045,2.67967441679084,
0.3875238057746581,0.5494157173997616,-0.364996035690343,1.993044193770548,0.427155426401792,2.683058338526989,
0.38468753741009465,0.5409453295762772,-0.3593025028653006,1.9904812360709805,0.42347527307389377,2.686438682862417,
0.38189045926726994,0.5324791667223047,-0.3535715728735034,1.9879034575274026,0.419849566975712,2.689813581709988,
0.3791318075247649,0.5240173671199763,-0.34780328528678023,1.9853131749559656,0.41627765806053735,2.693181143493961,
0.37641083686443666,0.515560055114597,-0.3419976733995735,1.9827127178199881,0.4127588989727075,2.6965394535654448,
0.3737268199582738,0.5071073413799009,-0.3361547641522804,1.9801044280672824,0.40929264509595414,2.6998865746391725,
0.371079046970299,0.4986593231757736,-0.33027457805351756,1.9774906599389126,0.4058782546169986,2.7032205472506874,
0.36846682507311446,0.490216084598443,-0.3243571291011603,1.9748737797506053,0.40251508860396357,2.7065393902329484,
